; Machine profile: Open5x / Prusa i3 MK3s (Freddi Hong style)
; U axis: tilt bed about machine Y
; V axis: spin tilted bed about local rotary axis
G21
G90
M83
G92 E0
G28
G0 U0.000 V0.000 F3000
; Strategy: print rotary core first with fixed U/V, then print the five-axis conformal shell.
; Travel moves are inserted between disconnected patches so blade-to-blade jumps do not extrude.
; Profile description: Converted Cartesian printer with a rotary bed. U is the bed tilt around the machine Y axis. V is the spin of the already tilted bed around its local rotary axis.
; Rotary centre (mm): X=0.000 Y=0.000 Z=0.000
; Build offset (mm): X=0.000 Y=0.000 Z=0.000
; Detected core centre (mm): X=4.893 Y=-0.286
; Detected core Z range (mm): [25.400, 41.600]
; Detected core max radius (mm): 8.096
; U command = +1 * U_math + 0.000 deg
; V command = +1 * V_math + 0.000 deg
; U limit range: [-95.000, 95.000] deg
; V limit range: [-540.000, 540.000] deg
; Rotary core top Z / conformal handoff: 41.600 mm
; --- Begin planar core / substrate phase ---
G0 X5.716 Y-0.286 Z27.400 U0.000 V0.000 F3600.0
G0 X5.716 Y-0.286 Z25.400 U0.000 V0.000 F3600.0
G1 X5.351 Y0.391 Z25.400 U0.000 V0.000 E0.02875 F1440.0
G1 X4.591 Y0.472 Z25.400 U0.000 V0.000 E0.02861 F1440.0
G1 X4.093 Y-0.110 Z25.400 U0.000 V0.000 E0.02865 F1440.0
G1 X4.298 Y-0.850 Z25.400 U0.000 V0.000 E0.02874 F1440.0
G1 X5.026 Y-1.091 Z25.400 U0.000 V0.000 E0.02868 F1440.0
G1 X5.634 Y-0.628 Z25.400 U0.000 V0.000 E0.02861 F1440.0
G1 X5.716 Y-0.286 Z25.400 U0.000 V0.000 E0.01316 F1440.0
G1 E-0.80000 F1500.0
G0 X5.716 Y-0.286 Z27.400 U0.000 V0.000 F3600.0
G0 X5.764 Y-0.658 Z27.400 U0.000 V0.000 F3600.0
G0 X5.764 Y-0.658 Z25.400 U0.000 V0.000 F3600.0
G1 E0.80000 F1200.0
G1 X4.964 Y-0.658 Z25.400 U0.000 V0.000 E0.02993 F1440.0
G1 X4.164 Y-0.658 Z25.400 U0.000 V0.000 E0.02993 F1440.0
G1 E-0.80000 F1500.0
G0 X4.164 Y-0.658 Z27.400 U0.000 V0.000 F3600.0
G0 X4.080 Y-0.208 Z27.400 U0.000 V0.000 F3600.0
G0 X4.080 Y-0.208 Z25.400 U0.000 V0.000 F3600.0
G1 E0.80000 F1200.0
G1 X4.880 Y-0.208 Z25.400 U0.000 V0.000 E0.02993 F1440.0
G1 X5.680 Y-0.208 Z25.400 U0.000 V0.000 E0.02993 F1440.0
G1 E-0.80000 F1500.0
G0 X5.680 Y-0.208 Z27.400 U0.000 V0.000 F3600.0
G0 X5.869 Y0.242 Z27.400 U0.000 V0.000 F3600.0
G0 X5.869 Y0.242 Z25.400 U0.000 V0.000 F3600.0
G1 E0.80000 F1200.0
G1 X5.069 Y0.242 Z25.400 U0.000 V0.000 E0.02993 F1440.0
G1 X4.269 Y0.242 Z25.400 U0.000 V0.000 E0.02993 F1440.0
G1 E-0.80000 F1500.0
G0 X4.269 Y0.242 Z27.400 U0.000 V0.000 F3600.0
G0 X6.172 Y-0.286 Z27.600 U0.000 V0.000 F3600.0
G0 X6.172 Y-0.286 Z25.600 U0.000 V0.000 F3600.0
G1 E0.80000 F1200.0
G1 X5.920 Y0.459 Z25.600 U0.000 V0.000 E0.02940 F1440.0
G1 X5.288 Y0.923 Z25.600 U0.000 V0.000 E0.02935 F1440.0
G1 X4.504 Y0.926 Z25.600 U0.000 V0.000 E0.02934 F1440.0
G1 X3.870 Y0.465 Z25.600 U0.000 V0.000 E0.02935 F1440.0
G1 X3.615 Y-0.278 Z25.600 U0.000 V0.000 E0.02940 F1440.0
G1 X3.861 Y-1.024 Z25.600 U0.000 V0.000 E0.02939 F1440.0
G1 X4.490 Y-1.492 Z25.600 U0.000 V0.000 E0.02934 F1440.0
G1 X5.275 Y-1.500 Z25.600 U0.000 V0.000 E0.02935 F1440.0
G1 X5.911 Y-1.042 Z25.600 U0.000 V0.000 E0.02935 F1440.0
G1 X6.170 Y-0.300 Z25.600 U0.000 V0.000 E0.02939 F1440.0
G1 X6.172 Y-0.286 Z25.600 U0.000 V0.000 E0.00055 F1440.0
G1 E-0.80000 F1500.0
G0 X6.172 Y-0.286 Z27.600 U0.000 V0.000 F3600.0
G0 X3.931 Y-1.115 Z27.600 U0.000 V0.000 F3600.0
G0 X3.931 Y-1.115 Z25.600 U0.000 V0.000 F3600.0
G1 E0.80000 F1200.0
G1 X4.731 Y-1.115 Z25.600 U0.000 V0.000 E0.02993 F1440.0
G1 X5.531 Y-1.115 Z25.600 U0.000 V0.000 E0.02993 F1440.0
G1 E-0.80000 F1500.0
G0 X5.531 Y-1.115 Z27.600 U0.000 V0.000 F3600.0
G0 X6.077 Y-0.665 Z27.600 U0.000 V0.000 F3600.0
G0 X6.077 Y-0.665 Z25.600 U0.000 V0.000 F3600.0
G1 E0.80000 F1200.0
G1 X5.277 Y-0.665 Z25.600 U0.000 V0.000 E0.02993 F1440.0
G1 X4.477 Y-0.665 Z25.600 U0.000 V0.000 E0.02993 F1440.0
G1 X3.677 Y-0.665 Z25.600 U0.000 V0.000 E0.02993 F1440.0
G1 E-0.80000 F1500.0
G0 X3.677 Y-0.665 Z27.600 U0.000 V0.000 F3600.0
G0 X3.623 Y-0.215 Z27.600 U0.000 V0.000 F3600.0
G0 X3.623 Y-0.215 Z25.600 U0.000 V0.000 F3600.0
G1 E0.80000 F1200.0
G1 X4.423 Y-0.215 Z25.600 U0.000 V0.000 E0.02993 F1440.0
G1 X5.223 Y-0.215 Z25.600 U0.000 V0.000 E0.02993 F1440.0
G1 X6.023 Y-0.215 Z25.600 U0.000 V0.000 E0.02993 F1440.0
G1 E-0.80000 F1500.0
G0 X6.023 Y-0.215 Z27.600 U0.000 V0.000 F3600.0
G0 X6.136 Y0.235 Z27.600 U0.000 V0.000 F3600.0
G0 X6.136 Y0.235 Z25.600 U0.000 V0.000 F3600.0
G1 E0.80000 F1200.0
G1 X5.336 Y0.235 Z25.600 U0.000 V0.000 E0.02993 F1440.0
G1 X4.536 Y0.235 Z25.600 U0.000 V0.000 E0.02993 F1440.0
G1 X3.736 Y0.235 Z25.600 U0.000 V0.000 E0.02993 F1440.0
G1 E-0.80000 F1500.0
G0 X3.736 Y0.235 Z27.600 U0.000 V0.000 F3600.0
G0 X4.075 Y0.685 Z27.600 U0.000 V0.000 F3600.0
G0 X4.075 Y0.685 Z25.600 U0.000 V0.000 F3600.0
G1 E0.80000 F1200.0
G1 X4.875 Y0.685 Z25.600 U0.000 V0.000 E0.02993 F1440.0
G1 X5.675 Y0.685 Z25.600 U0.000 V0.000 E0.02993 F1440.0
G1 E-0.80000 F1500.0
G0 X5.675 Y0.685 Z27.600 U0.000 V0.000 F3600.0
G0 X6.887 Y-0.286 Z27.800 U0.000 V0.000 F3600.0
G0 X6.887 Y-0.286 Z25.800 U0.000 V0.000 F3600.0
G1 E0.80000 F1200.0
G1 X6.712 Y0.489 Z25.800 U0.000 V0.000 E0.02970 F1440.0
G1 X6.273 Y1.148 Z25.800 U0.000 V0.000 E0.02964 F1440.0
G1 X5.597 Y1.563 Z25.800 U0.000 V0.000 E0.02969 F1440.0
G1 X4.817 Y1.699 Z25.800 U0.000 V0.000 E0.02960 F1440.0
G1 X4.048 Y1.505 Z25.800 U0.000 V0.000 E0.02968 F1440.0
G1 X3.413 Y1.034 Z25.800 U0.000 V0.000 E0.02958 F1440.0
G1 X3.015 Y0.348 Z25.800 U0.000 V0.000 E0.02968 F1440.0
G1 X2.918 Y-0.437 Z25.800 U0.000 V0.000 E0.02958 F1440.0
G1 X3.132 Y-1.201 Z25.800 U0.000 V0.000 E0.02968 F1440.0
G1 X3.634 Y-1.812 Z25.800 U0.000 V0.000 E0.02959 F1440.0
G1 X4.329 Y-2.193 Z25.800 U0.000 V0.000 E0.02969 F1440.0
G1 X5.119 Y-2.250 Z25.800 U0.000 V0.000 E0.02963 F1440.0
G1 X5.878 Y-2.018 Z25.800 U0.000 V0.000 E0.02970 F1440.0
G1 X6.465 Y-1.485 Z25.800 U0.000 V0.000 E0.02968 F1440.0
G1 X6.823 Y-0.777 Z25.800 U0.000 V0.000 E0.02966 F1440.0
G1 X6.887 Y-0.286 Z25.800 U0.000 V0.000 E0.01854 F1440.0
G1 E-0.80000 F1500.0
G0 X6.887 Y-0.286 Z27.800 U0.000 V0.000 F3600.0
G0 X6.057 Y-1.830 Z27.800 U0.000 V0.000 F3600.0
G0 X6.057 Y-1.830 Z25.800 U0.000 V0.000 F3600.0
G1 E0.80000 F1200.0
G1 X5.257 Y-1.830 Z25.800 U0.000 V0.000 E0.02993 F1440.0
G1 X4.457 Y-1.830 Z25.800 U0.000 V0.000 E0.02993 F1440.0
G1 X3.657 Y-1.830 Z25.800 U0.000 V0.000 E0.02993 F1440.0
G1 E-0.80000 F1500.0
G0 X3.657 Y-1.830 Z27.800 U0.000 V0.000 F3600.0
G0 X3.240 Y-1.380 Z27.800 U0.000 V0.000 F3600.0
G0 X3.240 Y-1.380 Z25.800 U0.000 V0.000 F3600.0
G1 E0.80000 F1200.0
G1 X4.040 Y-1.380 Z25.800 U0.000 V0.000 E0.02993 F1440.0
G1 X4.840 Y-1.380 Z25.800 U0.000 V0.000 E0.02993 F1440.0
G1 X5.640 Y-1.380 Z25.800 U0.000 V0.000 E0.02993 F1440.0
G1 X6.440 Y-1.380 Z25.800 U0.000 V0.000 E0.02993 F1440.0
G1 E-0.80000 F1500.0
G0 X6.440 Y-1.380 Z27.800 U0.000 V0.000 F3600.0
G0 X7.020 Y-0.930 Z27.800 U0.000 V0.000 F3600.0
G0 X7.020 Y-0.930 Z25.800 U0.000 V0.000 F3600.0
G1 E0.80000 F1200.0
G1 X6.220 Y-0.930 Z25.800 U0.000 V0.000 E0.02993 F1440.0
G1 X5.420 Y-0.930 Z25.800 U0.000 V0.000 E0.02993 F1440.0
G1 X4.620 Y-0.930 Z25.800 U0.000 V0.000 E0.02993 F1440.0
G1 X3.820 Y-0.930 Z25.800 U0.000 V0.000 E0.02993 F1440.0
G1 X3.020 Y-0.930 Z25.800 U0.000 V0.000 E0.02993 F1440.0
G1 E-0.80000 F1500.0
G0 X3.020 Y-0.930 Z27.800 U0.000 V0.000 F3600.0
G0 X2.924 Y-0.480 Z27.800 U0.000 V0.000 F3600.0
G0 X2.924 Y-0.480 Z25.800 U0.000 V0.000 F3600.0
G1 E0.80000 F1200.0
G1 X3.724 Y-0.480 Z25.800 U0.000 V0.000 E0.02993 F1440.0
G1 X4.524 Y-0.480 Z25.800 U0.000 V0.000 E0.02993 F1440.0
G1 X5.324 Y-0.480 Z25.800 U0.000 V0.000 E0.02993 F1440.0
G1 X6.124 Y-0.480 Z25.800 U0.000 V0.000 E0.02993 F1440.0
G1 X6.924 Y-0.480 Z25.800 U0.000 V0.000 E0.02993 F1440.0
G1 E-0.80000 F1500.0
G0 X6.924 Y-0.480 Z27.800 U0.000 V0.000 F3600.0
G0 X6.932 Y-0.030 Z27.800 U0.000 V0.000 F3600.0
G0 X6.932 Y-0.030 Z25.800 U0.000 V0.000 F3600.0
G1 E0.80000 F1200.0
G1 X6.132 Y-0.030 Z25.800 U0.000 V0.000 E0.02993 F1440.0
G1 X5.332 Y-0.030 Z25.800 U0.000 V0.000 E0.02993 F1440.0
G1 X4.532 Y-0.030 Z25.800 U0.000 V0.000 E0.02993 F1440.0
G1 X3.732 Y-0.030 Z25.800 U0.000 V0.000 E0.02993 F1440.0
G1 X2.932 Y-0.030 Z25.800 U0.000 V0.000 E0.02993 F1440.0
G1 E-0.80000 F1500.0
G0 X2.932 Y-0.030 Z27.800 U0.000 V0.000 F3600.0
G0 X3.045 Y0.420 Z27.800 U0.000 V0.000 F3600.0
G0 X3.045 Y0.420 Z25.800 U0.000 V0.000 F3600.0
G1 E0.80000 F1200.0
G1 X3.845 Y0.420 Z25.800 U0.000 V0.000 E0.02993 F1440.0
G1 X4.645 Y0.420 Z25.800 U0.000 V0.000 E0.02993 F1440.0
G1 X5.445 Y0.420 Z25.800 U0.000 V0.000 E0.02993 F1440.0
G1 X6.245 Y0.420 Z25.800 U0.000 V0.000 E0.02993 F1440.0
G1 X7.045 Y0.420 Z25.800 U0.000 V0.000 E0.02993 F1440.0
G1 E-0.80000 F1500.0
G0 X7.045 Y0.420 Z27.800 U0.000 V0.000 F3600.0
G0 X6.487 Y0.870 Z27.800 U0.000 V0.000 F3600.0
G0 X6.487 Y0.870 Z25.800 U0.000 V0.000 F3600.0
G1 E0.80000 F1200.0
G1 X5.687 Y0.870 Z25.800 U0.000 V0.000 E0.02993 F1440.0
G1 X4.887 Y0.870 Z25.800 U0.000 V0.000 E0.02993 F1440.0
G1 X4.087 Y0.870 Z25.800 U0.000 V0.000 E0.02993 F1440.0
G1 X3.287 Y0.870 Z25.800 U0.000 V0.000 E0.02993 F1440.0
G1 E-0.80000 F1500.0
G0 X3.287 Y0.870 Z27.800 U0.000 V0.000 F3600.0
G0 X3.737 Y1.320 Z27.800 U0.000 V0.000 F3600.0
G0 X3.737 Y1.320 Z25.800 U0.000 V0.000 F3600.0
G1 E0.80000 F1200.0
G1 X4.537 Y1.320 Z25.800 U0.000 V0.000 E0.02993 F1440.0
G1 X5.337 Y1.320 Z25.800 U0.000 V0.000 E0.02993 F1440.0
G1 X6.137 Y1.320 Z25.800 U0.000 V0.000 E0.02993 F1440.0
G1 E-0.80000 F1500.0
G0 X6.137 Y1.320 Z27.800 U0.000 V0.000 F3600.0
G0 X7.624 Y-0.286 Z28.000 U0.000 V0.000 F3600.0
G0 X7.624 Y-0.286 Z26.000 U0.000 V0.000 F3600.0
G1 E0.80000 F1200.0
G1 X7.498 Y0.502 Z26.000 U0.000 V0.000 E0.02984 F1440.0
G1 X7.152 Y1.218 Z26.000 U0.000 V0.000 E0.02976 F1440.0
G1 X6.617 Y1.804 Z26.000 U0.000 V0.000 E0.02971 F1440.0
G1 X5.937 Y2.213 Z26.000 U0.000 V0.000 E0.02968 F1440.0
G1 X5.168 Y2.409 Z26.000 U0.000 V0.000 E0.02968 F1440.0
G1 X4.375 Y2.377 Z26.000 U0.000 V0.000 E0.02970 F1440.0
G1 X3.623 Y2.119 Z26.000 U0.000 V0.000 E0.02975 F1440.0
G1 X2.975 Y1.656 Z26.000 U0.000 V0.000 E0.02982 F1440.0
G1 X2.501 Y1.015 Z26.000 U0.000 V0.000 E0.02983 F1440.0
G1 X2.234 Y0.265 Z26.000 U0.000 V0.000 E0.02977 F1440.0
G1 X2.194 Y-0.528 Z26.000 U0.000 V0.000 E0.02972 F1440.0
G1 X2.381 Y-1.299 Z26.000 U0.000 V0.000 E0.02969 F1440.0
G1 X2.782 Y-1.983 Z26.000 U0.000 V0.000 E0.02968 F1440.0
G1 X3.362 Y-2.525 Z26.000 U0.000 V0.000 E0.02970 F1440.0
G1 X4.074 Y-2.878 Z26.000 U0.000 V0.000 E0.02974 F1440.0
G1 X4.859 Y-3.013 Z26.000 U0.000 V0.000 E0.02980 F1440.0
G1 X5.649 Y-2.903 Z26.000 U0.000 V0.000 E0.02982 F1440.0
G1 X6.370 Y-2.566 Z26.000 U0.000 V0.000 E0.02979 F1440.0
G1 X6.963 Y-2.037 Z26.000 U0.000 V0.000 E0.02973 F1440.0
G1 X7.378 Y-1.361 Z26.000 U0.000 V0.000 E0.02969 F1440.0
G1 X7.583 Y-0.595 Z26.000 U0.000 V0.000 E0.02968 F1440.0
G1 X7.624 Y-0.286 Z26.000 U0.000 V0.000 E0.01166 F1440.0
G1 E-0.80000 F1500.0
G0 X7.624 Y-0.286 Z28.000 U0.000 V0.000 F3600.0
G0 X3.418 Y-2.567 Z28.000 U0.000 V0.000 F3600.0
G0 X3.418 Y-2.567 Z26.000 U0.000 V0.000 F3600.0
G1 E0.80000 F1200.0
G1 X4.218 Y-2.567 Z26.000 U0.000 V0.000 E0.02993 F1440.0
G1 X5.018 Y-2.567 Z26.000 U0.000 V0.000 E0.02993 F1440.0
G1 X5.818 Y-2.567 Z26.000 U0.000 V0.000 E0.02993 F1440.0
G1 X6.618 Y-2.567 Z26.000 U0.000 V0.000 E0.02993 F1440.0
G1 E-0.80000 F1500.0
G0 X6.618 Y-2.567 Z28.000 U0.000 V0.000 F3600.0
G0 X6.885 Y-2.117 Z28.000 U0.000 V0.000 F3600.0
G0 X6.885 Y-2.117 Z26.000 U0.000 V0.000 F3600.0
G1 E0.80000 F1200.0
G1 X6.085 Y-2.117 Z26.000 U0.000 V0.000 E0.02993 F1440.0
G1 X5.285 Y-2.117 Z26.000 U0.000 V0.000 E0.02993 F1440.0
G1 X4.485 Y-2.117 Z26.000 U0.000 V0.000 E0.02993 F1440.0
G1 X3.685 Y-2.117 Z26.000 U0.000 V0.000 E0.02993 F1440.0
G1 X2.885 Y-2.117 Z26.000 U0.000 V0.000 E0.02993 F1440.0
G1 E-0.80000 F1500.0
G0 X2.885 Y-2.117 Z28.000 U0.000 V0.000 F3600.0
G0 X2.540 Y-1.667 Z28.000 U0.000 V0.000 F3600.0
G0 X2.540 Y-1.667 Z26.000 U0.000 V0.000 F3600.0
G1 E0.80000 F1200.0
G1 X3.340 Y-1.667 Z26.000 U0.000 V0.000 E0.02993 F1440.0
G1 X4.140 Y-1.667 Z26.000 U0.000 V0.000 E0.02993 F1440.0
G1 X4.940 Y-1.667 Z26.000 U0.000 V0.000 E0.02993 F1440.0
G1 X5.740 Y-1.667 Z26.000 U0.000 V0.000 E0.02993 F1440.0
G1 X6.540 Y-1.667 Z26.000 U0.000 V0.000 E0.02993 F1440.0
G1 X7.340 Y-1.667 Z26.000 U0.000 V0.000 E0.02993 F1440.0
G1 E-0.80000 F1500.0
G0 X7.340 Y-1.667 Z28.000 U0.000 V0.000 F3600.0
G0 X7.148 Y-1.217 Z28.000 U0.000 V0.000 F3600.0
G0 X7.148 Y-1.217 Z26.000 U0.000 V0.000 F3600.0
G1 E0.80000 F1200.0
G1 X6.348 Y-1.217 Z26.000 U0.000 V0.000 E0.02993 F1440.0
G1 X5.548 Y-1.217 Z26.000 U0.000 V0.000 E0.02993 F1440.0
G1 X4.748 Y-1.217 Z26.000 U0.000 V0.000 E0.02993 F1440.0
G1 X3.948 Y-1.217 Z26.000 U0.000 V0.000 E0.02993 F1440.0
G1 X3.148 Y-1.217 Z26.000 U0.000 V0.000 E0.02993 F1440.0
G1 X2.348 Y-1.217 Z26.000 U0.000 V0.000 E0.02993 F1440.0
G1 E-0.80000 F1500.0
G0 X2.348 Y-1.217 Z28.000 U0.000 V0.000 F3600.0
G0 X2.225 Y-0.767 Z28.000 U0.000 V0.000 F3600.0
G0 X2.225 Y-0.767 Z26.000 U0.000 V0.000 F3600.0
G1 E0.80000 F1200.0
G1 X3.025 Y-0.767 Z26.000 U0.000 V0.000 E0.02993 F1440.0
G1 X3.825 Y-0.767 Z26.000 U0.000 V0.000 E0.02993 F1440.0
G1 X4.625 Y-0.767 Z26.000 U0.000 V0.000 E0.02993 F1440.0
G1 X5.425 Y-0.767 Z26.000 U0.000 V0.000 E0.02993 F1440.0
G1 X6.225 Y-0.767 Z26.000 U0.000 V0.000 E0.02993 F1440.0
G1 X7.025 Y-0.767 Z26.000 U0.000 V0.000 E0.02993 F1440.0
G1 X7.825 Y-0.767 Z26.000 U0.000 V0.000 E0.02993 F1440.0
G1 E-0.80000 F1500.0
G0 X7.825 Y-0.767 Z28.000 U0.000 V0.000 F3600.0
G0 X7.766 Y-0.317 Z28.000 U0.000 V0.000 F3600.0
G0 X7.766 Y-0.317 Z26.000 U0.000 V0.000 F3600.0
G1 E0.80000 F1200.0
G1 X6.966 Y-0.317 Z26.000 U0.000 V0.000 E0.02993 F1440.0
G1 X6.166 Y-0.317 Z26.000 U0.000 V0.000 E0.02993 F1440.0
G1 X5.366 Y-0.317 Z26.000 U0.000 V0.000 E0.02993 F1440.0
G1 X4.566 Y-0.317 Z26.000 U0.000 V0.000 E0.02993 F1440.0
G1 X3.766 Y-0.317 Z26.000 U0.000 V0.000 E0.02993 F1440.0
G1 X2.966 Y-0.317 Z26.000 U0.000 V0.000 E0.02993 F1440.0
G1 X2.166 Y-0.317 Z26.000 U0.000 V0.000 E0.02993 F1440.0
G1 E-0.80000 F1500.0
G0 X2.166 Y-0.317 Z28.000 U0.000 V0.000 F3600.0
G0 X2.217 Y0.133 Z28.000 U0.000 V0.000 F3600.0
G0 X2.217 Y0.133 Z26.000 U0.000 V0.000 F3600.0
G1 E0.80000 F1200.0
G1 X3.017 Y0.133 Z26.000 U0.000 V0.000 E0.02993 F1440.0
G1 X3.817 Y0.133 Z26.000 U0.000 V0.000 E0.02993 F1440.0
G1 X4.617 Y0.133 Z26.000 U0.000 V0.000 E0.02993 F1440.0
G1 X5.417 Y0.133 Z26.000 U0.000 V0.000 E0.02993 F1440.0
G1 X6.217 Y0.133 Z26.000 U0.000 V0.000 E0.02993 F1440.0
G1 X7.017 Y0.133 Z26.000 U0.000 V0.000 E0.02993 F1440.0
G1 X7.817 Y0.133 Z26.000 U0.000 V0.000 E0.02993 F1440.0
G1 E-0.80000 F1500.0
G0 X7.817 Y0.133 Z28.000 U0.000 V0.000 F3600.0
G0 X7.122 Y0.583 Z28.000 U0.000 V0.000 F3600.0
G0 X7.122 Y0.583 Z26.000 U0.000 V0.000 F3600.0
G1 E0.80000 F1200.0
G1 X6.322 Y0.583 Z26.000 U0.000 V0.000 E0.02993 F1440.0
G1 X5.522 Y0.583 Z26.000 U0.000 V0.000 E0.02993 F1440.0
G1 X4.722 Y0.583 Z26.000 U0.000 V0.000 E0.02993 F1440.0
G1 X3.922 Y0.583 Z26.000 U0.000 V0.000 E0.02993 F1440.0
G1 X3.122 Y0.583 Z26.000 U0.000 V0.000 E0.02993 F1440.0
G1 X2.322 Y0.583 Z26.000 U0.000 V0.000 E0.02993 F1440.0
G1 E-0.80000 F1500.0
G0 X2.322 Y0.583 Z28.000 U0.000 V0.000 F3600.0
G0 X2.508 Y1.033 Z28.000 U0.000 V0.000 F3600.0
G0 X2.508 Y1.033 Z26.000 U0.000 V0.000 F3600.0
G1 E0.80000 F1200.0
G1 X3.308 Y1.033 Z26.000 U0.000 V0.000 E0.02993 F1440.0
G1 X4.108 Y1.033 Z26.000 U0.000 V0.000 E0.02993 F1440.0
G1 X4.908 Y1.033 Z26.000 U0.000 V0.000 E0.02993 F1440.0
G1 X5.708 Y1.033 Z26.000 U0.000 V0.000 E0.02993 F1440.0
G1 X6.508 Y1.033 Z26.000 U0.000 V0.000 E0.02993 F1440.0
G1 X7.308 Y1.033 Z26.000 U0.000 V0.000 E0.02993 F1440.0
G1 E-0.80000 F1500.0
G0 X7.308 Y1.033 Z28.000 U0.000 V0.000 F3600.0
G0 X6.837 Y1.483 Z28.000 U0.000 V0.000 F3600.0
G0 X6.837 Y1.483 Z26.000 U0.000 V0.000 F3600.0
G1 E0.80000 F1200.0
G1 X6.037 Y1.483 Z26.000 U0.000 V0.000 E0.02993 F1440.0
G1 X5.237 Y1.483 Z26.000 U0.000 V0.000 E0.02993 F1440.0
G1 X4.437 Y1.483 Z26.000 U0.000 V0.000 E0.02993 F1440.0
G1 X3.637 Y1.483 Z26.000 U0.000 V0.000 E0.02993 F1440.0
G1 X2.837 Y1.483 Z26.000 U0.000 V0.000 E0.02993 F1440.0
G1 E-0.80000 F1500.0
G0 X2.837 Y1.483 Z28.000 U0.000 V0.000 F3600.0
G0 X3.336 Y1.933 Z28.000 U0.000 V0.000 F3600.0
G0 X3.336 Y1.933 Z26.000 U0.000 V0.000 F3600.0
G1 E0.80000 F1200.0
G1 X4.136 Y1.933 Z26.000 U0.000 V0.000 E0.02993 F1440.0
G1 X4.936 Y1.933 Z26.000 U0.000 V0.000 E0.02993 F1440.0
G1 X5.736 Y1.933 Z26.000 U0.000 V0.000 E0.02993 F1440.0
G1 X6.536 Y1.933 Z26.000 U0.000 V0.000 E0.02993 F1440.0
G1 E-0.80000 F1500.0
G0 X6.536 Y1.933 Z28.000 U0.000 V0.000 F3600.0
G0 X5.219 Y2.383 Z28.000 U0.000 V0.000 F3600.0
G0 X5.219 Y2.383 Z26.000 U0.000 V0.000 F3600.0
G1 E0.80000 F1200.0
G1 X4.419 Y2.383 Z26.000 U0.000 V0.000 E0.02993 F1440.0
G1 E-0.80000 F1500.0
G0 X4.419 Y2.383 Z28.000 U0.000 V0.000 F3600.0
G0 X8.065 Y-0.286 Z28.200 U0.000 V0.000 F3600.0
G0 X8.065 Y-0.286 Z26.200 U0.000 V0.000 F3600.0
G1 E0.80000 F1200.0
G1 X7.963 Y0.508 Z26.200 U0.000 V0.000 E0.02993 F1440.0
G1 X7.666 Y1.250 Z26.200 U0.000 V0.000 E0.02992 F1440.0
G1 X7.193 Y1.895 Z26.200 U0.000 V0.000 E0.02992 F1440.0
G1 X6.574 Y2.401 Z26.200 U0.000 V0.000 E0.02991 F1440.0
G1 X5.849 Y2.735 Z26.200 U0.000 V0.000 E0.02991 F1440.0
G1 X5.062 Y2.878 Z26.200 U0.000 V0.000 E0.02990 F1440.0
G1 X4.266 Y2.819 Z26.200 U0.000 V0.000 E0.02990 F1440.0
G1 X3.509 Y2.563 Z26.200 U0.000 V0.000 E0.02989 F1440.0
G1 X2.841 Y2.126 Z26.200 U0.000 V0.000 E0.02988 F1440.0
G1 X2.303 Y1.535 Z26.200 U0.000 V0.000 E0.02988 F1440.0
G1 X1.930 Y0.829 Z26.200 U0.000 V0.000 E0.02987 F1440.0
G1 X1.746 Y0.052 Z26.200 U0.000 V0.000 E0.02987 F1440.0
G1 X1.762 Y-0.746 Z26.200 U0.000 V0.000 E0.02986 F1440.0
G1 X1.977 Y-1.514 Z26.200 U0.000 V0.000 E0.02986 F1440.0
G1 X2.378 Y-2.204 Z26.200 U0.000 V0.000 E0.02985 F1440.0
G1 X2.938 Y-2.772 Z26.200 U0.000 V0.000 E0.02985 F1440.0
G1 X3.623 Y-3.182 Z26.200 U0.000 V0.000 E0.02985 F1440.0
G1 X4.388 Y-3.407 Z26.200 U0.000 V0.000 E0.02984 F1440.0
G1 X5.185 Y-3.434 Z26.200 U0.000 V0.000 E0.02984 F1440.0
G1 X5.963 Y-3.260 Z26.200 U0.000 V0.000 E0.02983 F1440.0
G1 X6.673 Y-2.897 Z26.200 U0.000 V0.000 E0.02983 F1440.0
G1 X7.269 Y-2.369 Z26.200 U0.000 V0.000 E0.02982 F1440.0
G1 X7.714 Y-1.708 Z26.200 U0.000 V0.000 E0.02982 F1440.0
G1 X7.980 Y-0.956 Z26.200 U0.000 V0.000 E0.02981 F1440.0
G1 X8.065 Y-0.286 Z26.200 U0.000 V0.000 E0.02530 F1440.0
G1 E-0.80000 F1500.0
G0 X8.065 Y-0.286 Z28.200 U0.000 V0.000 F3600.0
G0 X6.499 Y-3.001 Z28.200 U0.000 V0.000 F3600.0
G0 X6.499 Y-3.001 Z26.200 U0.000 V0.000 F3600.0
G1 E0.80000 F1200.0
G1 X5.699 Y-3.001 Z26.200 U0.000 V0.000 E0.02993 F1440.0
G1 X4.899 Y-3.001 Z26.200 U0.000 V0.000 E0.02993 F1440.0
G1 X4.099 Y-3.001 Z26.200 U0.000 V0.000 E0.02993 F1440.0
G1 X3.299 Y-3.001 Z26.200 U0.000 V0.000 E0.02993 F1440.0
G1 E-0.80000 F1500.0
G0 X3.299 Y-3.001 Z28.200 U0.000 V0.000 F3600.0
G0 X2.704 Y-2.551 Z28.200 U0.000 V0.000 F3600.0
G0 X2.704 Y-2.551 Z26.200 U0.000 V0.000 F3600.0
G1 E0.80000 F1200.0
G1 X3.504 Y-2.551 Z26.200 U0.000 V0.000 E0.02993 F1440.0
G1 X4.304 Y-2.551 Z26.200 U0.000 V0.000 E0.02993 F1440.0
G1 X5.104 Y-2.551 Z26.200 U0.000 V0.000 E0.02993 F1440.0
G1 X5.904 Y-2.551 Z26.200 U0.000 V0.000 E0.02993 F1440.0
G1 X6.704 Y-2.551 Z26.200 U0.000 V0.000 E0.02993 F1440.0
G1 E-0.80000 F1500.0
G0 X6.704 Y-2.551 Z28.200 U0.000 V0.000 F3600.0
G0 X7.100 Y-2.101 Z28.200 U0.000 V0.000 F3600.0
G0 X7.100 Y-2.101 Z26.200 U0.000 V0.000 F3600.0
G1 E0.80000 F1200.0
G1 X6.300 Y-2.101 Z26.200 U0.000 V0.000 E0.02993 F1440.0
G1 X5.500 Y-2.101 Z26.200 U0.000 V0.000 E0.02993 F1440.0
G1 X4.700 Y-2.101 Z26.200 U0.000 V0.000 E0.02993 F1440.0
G1 X3.900 Y-2.101 Z26.200 U0.000 V0.000 E0.02993 F1440.0
G1 X3.100 Y-2.101 Z26.200 U0.000 V0.000 E0.02993 F1440.0
G1 X2.300 Y-2.101 Z26.200 U0.000 V0.000 E0.02993 F1440.0
G1 E-0.80000 F1500.0
G0 X2.300 Y-2.101 Z28.200 U0.000 V0.000 F3600.0
G0 X2.053 Y-1.651 Z28.200 U0.000 V0.000 F3600.0
G0 X2.053 Y-1.651 Z26.200 U0.000 V0.000 F3600.0
G1 E0.80000 F1200.0
G1 X2.853 Y-1.651 Z26.200 U0.000 V0.000 E0.02993 F1440.0
G1 X3.653 Y-1.651 Z26.200 U0.000 V0.000 E0.02993 F1440.0
G1 X4.453 Y-1.651 Z26.200 U0.000 V0.000 E0.02993 F1440.0
G1 X5.253 Y-1.651 Z26.200 U0.000 V0.000 E0.02993 F1440.0
G1 X6.053 Y-1.651 Z26.200 U0.000 V0.000 E0.02993 F1440.0
G1 X6.853 Y-1.651 Z26.200 U0.000 V0.000 E0.02993 F1440.0
G1 X7.653 Y-1.651 Z26.200 U0.000 V0.000 E0.02993 F1440.0
G1 E-0.80000 F1500.0
G0 X7.653 Y-1.651 Z28.200 U0.000 V0.000 F3600.0
G0 X8.279 Y-1.201 Z28.200 U0.000 V0.000 F3600.0
G0 X8.279 Y-1.201 Z26.200 U0.000 V0.000 F3600.0
G1 E0.80000 F1200.0
G1 X7.479 Y-1.201 Z26.200 U0.000 V0.000 E0.02993 F1440.0
G1 X6.679 Y-1.201 Z26.200 U0.000 V0.000 E0.02993 F1440.0
G1 X5.879 Y-1.201 Z26.200 U0.000 V0.000 E0.02993 F1440.0
G1 X5.079 Y-1.201 Z26.200 U0.000 V0.000 E0.02993 F1440.0
G1 X4.279 Y-1.201 Z26.200 U0.000 V0.000 E0.02993 F1440.0
G1 X3.479 Y-1.201 Z26.200 U0.000 V0.000 E0.02993 F1440.0
G1 X2.679 Y-1.201 Z26.200 U0.000 V0.000 E0.02993 F1440.0
G1 X1.879 Y-1.201 Z26.200 U0.000 V0.000 E0.02993 F1440.0
G1 E-0.80000 F1500.0
G0 X1.879 Y-1.201 Z28.200 U0.000 V0.000 F3600.0
G0 X1.764 Y-0.751 Z28.200 U0.000 V0.000 F3600.0
G0 X1.764 Y-0.751 Z26.200 U0.000 V0.000 F3600.0
G1 E0.80000 F1200.0
G1 X2.564 Y-0.751 Z26.200 U0.000 V0.000 E0.02993 F1440.0
G1 X3.364 Y-0.751 Z26.200 U0.000 V0.000 E0.02993 F1440.0
G1 X4.164 Y-0.751 Z26.200 U0.000 V0.000 E0.02993 F1440.0
G1 X4.964 Y-0.751 Z26.200 U0.000 V0.000 E0.02993 F1440.0
G1 X5.764 Y-0.751 Z26.200 U0.000 V0.000 E0.02993 F1440.0
G1 X6.564 Y-0.751 Z26.200 U0.000 V0.000 E0.02993 F1440.0
G1 X7.364 Y-0.751 Z26.200 U0.000 V0.000 E0.02993 F1440.0
G1 X8.164 Y-0.751 Z26.200 U0.000 V0.000 E0.02993 F1440.0
G1 E-0.80000 F1500.0
G0 X8.164 Y-0.751 Z28.200 U0.000 V0.000 F3600.0
G0 X8.146 Y-0.301 Z28.200 U0.000 V0.000 F3600.0
G0 X8.146 Y-0.301 Z26.200 U0.000 V0.000 F3600.0
G1 E0.80000 F1200.0
G1 X7.346 Y-0.301 Z26.200 U0.000 V0.000 E0.02993 F1440.0
G1 X6.546 Y-0.301 Z26.200 U0.000 V0.000 E0.02993 F1440.0
G1 X5.746 Y-0.301 Z26.200 U0.000 V0.000 E0.02993 F1440.0
G1 X4.946 Y-0.301 Z26.200 U0.000 V0.000 E0.02993 F1440.0
G1 X4.146 Y-0.301 Z26.200 U0.000 V0.000 E0.02993 F1440.0
G1 X3.346 Y-0.301 Z26.200 U0.000 V0.000 E0.02993 F1440.0
G1 X2.546 Y-0.301 Z26.200 U0.000 V0.000 E0.02993 F1440.0
G1 X1.746 Y-0.301 Z26.200 U0.000 V0.000 E0.02993 F1440.0
G1 E-0.80000 F1500.0
G0 X1.746 Y-0.301 Z28.200 U0.000 V0.000 F3600.0
G0 X1.756 Y0.149 Z28.200 U0.000 V0.000 F3600.0
G0 X1.756 Y0.149 Z26.200 U0.000 V0.000 F3600.0
G1 E0.80000 F1200.0
G1 X2.556 Y0.149 Z26.200 U0.000 V0.000 E0.02993 F1440.0
G1 X3.356 Y0.149 Z26.200 U0.000 V0.000 E0.02993 F1440.0
G1 X4.156 Y0.149 Z26.200 U0.000 V0.000 E0.02993 F1440.0
G1 X4.956 Y0.149 Z26.200 U0.000 V0.000 E0.02993 F1440.0
G1 X5.756 Y0.149 Z26.200 U0.000 V0.000 E0.02993 F1440.0
G1 X6.556 Y0.149 Z26.200 U0.000 V0.000 E0.02993 F1440.0
G1 X7.356 Y0.149 Z26.200 U0.000 V0.000 E0.02993 F1440.0
G1 X8.156 Y0.149 Z26.200 U0.000 V0.000 E0.02993 F1440.0
G1 E-0.80000 F1500.0
G0 X8.156 Y0.149 Z28.200 U0.000 V0.000 F3600.0
G0 X8.271 Y0.599 Z28.200 U0.000 V0.000 F3600.0
G0 X8.271 Y0.599 Z26.200 U0.000 V0.000 F3600.0
G1 E0.80000 F1200.0
G1 X7.471 Y0.599 Z26.200 U0.000 V0.000 E0.02993 F1440.0
G1 X6.671 Y0.599 Z26.200 U0.000 V0.000 E0.02993 F1440.0
G1 X5.871 Y0.599 Z26.200 U0.000 V0.000 E0.02993 F1440.0
G1 X5.071 Y0.599 Z26.200 U0.000 V0.000 E0.02993 F1440.0
G1 X4.271 Y0.599 Z26.200 U0.000 V0.000 E0.02993 F1440.0
G1 X3.471 Y0.599 Z26.200 U0.000 V0.000 E0.02993 F1440.0
G1 X2.671 Y0.599 Z26.200 U0.000 V0.000 E0.02993 F1440.0
G1 X1.871 Y0.599 Z26.200 U0.000 V0.000 E0.02993 F1440.0
G1 E-0.80000 F1500.0
G0 X1.871 Y0.599 Z28.200 U0.000 V0.000 F3600.0
G0 X2.036 Y1.049 Z28.200 U0.000 V0.000 F3600.0
G0 X2.036 Y1.049 Z26.200 U0.000 V0.000 F3600.0
G1 E0.80000 F1200.0
G1 X2.836 Y1.049 Z26.200 U0.000 V0.000 E0.02993 F1440.0
G1 X3.636 Y1.049 Z26.200 U0.000 V0.000 E0.02993 F1440.0
G1 X4.436 Y1.049 Z26.200 U0.000 V0.000 E0.02993 F1440.0
G1 X5.236 Y1.049 Z26.200 U0.000 V0.000 E0.02993 F1440.0
G1 X6.036 Y1.049 Z26.200 U0.000 V0.000 E0.02993 F1440.0
G1 X6.836 Y1.049 Z26.200 U0.000 V0.000 E0.02993 F1440.0
G1 X7.636 Y1.049 Z26.200 U0.000 V0.000 E0.02993 F1440.0
G1 E-0.80000 F1500.0
G0 X7.636 Y1.049 Z28.200 U0.000 V0.000 F3600.0
G0 X7.883 Y1.499 Z28.200 U0.000 V0.000 F3600.0
G0 X7.883 Y1.499 Z26.200 U0.000 V0.000 F3600.0
G1 E0.80000 F1200.0
G1 X7.083 Y1.499 Z26.200 U0.000 V0.000 E0.02993 F1440.0
G1 X6.283 Y1.499 Z26.200 U0.000 V0.000 E0.02993 F1440.0
G1 X5.483 Y1.499 Z26.200 U0.000 V0.000 E0.02993 F1440.0
G1 X4.683 Y1.499 Z26.200 U0.000 V0.000 E0.02993 F1440.0
G1 X3.883 Y1.499 Z26.200 U0.000 V0.000 E0.02993 F1440.0
G1 X3.083 Y1.499 Z26.200 U0.000 V0.000 E0.02993 F1440.0
G1 X2.283 Y1.499 Z26.200 U0.000 V0.000 E0.02993 F1440.0
G1 E-0.80000 F1500.0
G0 X2.283 Y1.499 Z28.200 U0.000 V0.000 F3600.0
G0 X2.675 Y1.949 Z28.200 U0.000 V0.000 F3600.0
G0 X2.675 Y1.949 Z26.200 U0.000 V0.000 F3600.0
G1 E0.80000 F1200.0
G1 X3.475 Y1.949 Z26.200 U0.000 V0.000 E0.02993 F1440.0
G1 X4.275 Y1.949 Z26.200 U0.000 V0.000 E0.02993 F1440.0
G1 X5.075 Y1.949 Z26.200 U0.000 V0.000 E0.02993 F1440.0
G1 X5.875 Y1.949 Z26.200 U0.000 V0.000 E0.02993 F1440.0
G1 X6.675 Y1.949 Z26.200 U0.000 V0.000 E0.02993 F1440.0
G1 X7.475 Y1.949 Z26.200 U0.000 V0.000 E0.02993 F1440.0
G1 E-0.80000 F1500.0
G0 X7.475 Y1.949 Z28.200 U0.000 V0.000 F3600.0
G0 X6.450 Y2.399 Z28.200 U0.000 V0.000 F3600.0
G0 X6.450 Y2.399 Z26.200 U0.000 V0.000 F3600.0
G1 E0.80000 F1200.0
G1 X5.650 Y2.399 Z26.200 U0.000 V0.000 E0.02993 F1440.0
G1 X4.850 Y2.399 Z26.200 U0.000 V0.000 E0.02993 F1440.0
G1 X4.050 Y2.399 Z26.200 U0.000 V0.000 E0.02993 F1440.0
G1 X3.250 Y2.399 Z26.200 U0.000 V0.000 E0.02993 F1440.0
G1 E-0.80000 F1500.0
G0 X3.250 Y2.399 Z28.200 U0.000 V0.000 F3600.0
G0 X4.601 Y2.849 Z28.200 U0.000 V0.000 F3600.0
G0 X4.601 Y2.849 Z26.200 U0.000 V0.000 F3600.0
G1 E0.80000 F1200.0
G1 X5.401 Y2.849 Z26.200 U0.000 V0.000 E0.02993 F1440.0
G1 E-0.80000 F1500.0
G0 X5.401 Y2.849 Z28.200 U0.000 V0.000 F3600.0
G0 X8.404 Y-0.286 Z28.400 U0.000 V0.000 F3600.0
G0 X8.404 Y-0.286 Z26.400 U0.000 V0.000 F3600.0
G1 E0.80000 F1200.0
G1 X8.311 Y0.509 Z26.400 U0.000 V0.000 E0.02992 F1440.0
G1 X8.042 Y1.261 Z26.400 U0.000 V0.000 E0.02991 F1440.0
G1 X7.609 Y1.933 Z26.400 U0.000 V0.000 E0.02990 F1440.0
G1 X7.036 Y2.489 Z26.400 U0.000 V0.000 E0.02989 F1440.0
G1 X6.351 Y2.900 Z26.400 U0.000 V0.000 E0.02988 F1440.0
G1 X5.592 Y3.147 Z26.400 U0.000 V0.000 E0.02986 F1440.0
G1 X4.797 Y3.215 Z26.400 U0.000 V0.000 E0.02985 F1440.0
G1 X4.008 Y3.101 Z26.400 U0.000 V0.000 E0.02985 F1440.0
G1 X3.265 Y2.812 Z26.400 U0.000 V0.000 E0.02984 F1440.0
G1 X2.606 Y2.362 Z26.400 U0.000 V0.000 E0.02983 F1440.0
G1 X2.067 Y1.775 Z26.400 U0.000 V0.000 E0.02982 F1440.0
G1 X1.675 Y1.082 Z26.400 U0.000 V0.000 E0.02981 F1440.0
G1 X1.450 Y0.318 Z26.400 U0.000 V0.000 E0.02980 F1440.0
G1 X1.403 Y-0.477 Z26.400 U0.000 V0.000 E0.02980 F1440.0
G1 X1.538 Y-1.262 Z26.400 U0.000 V0.000 E0.02979 F1440.0
G1 X1.846 Y-1.995 Z26.400 U0.000 V0.000 E0.02978 F1440.0
G1 X2.313 Y-2.640 Z26.400 U0.000 V0.000 E0.02978 F1440.0
G1 X2.913 Y-3.162 Z26.400 U0.000 V0.000 E0.02977 F1440.0
G1 X3.616 Y-3.535 Z26.400 U0.000 V0.000 E0.02977 F1440.0
G1 X4.385 Y-3.740 Z26.400 U0.000 V0.000 E0.02976 F1440.0
G1 X5.180 Y-3.765 Z26.400 U0.000 V0.000 E0.02976 F1440.0
G1 X5.960 Y-3.609 Z26.400 U0.000 V0.000 E0.02976 F1440.0
G1 X6.684 Y-3.281 Z26.400 U0.000 V0.000 E0.02975 F1440.0
G1 X7.315 Y-2.798 Z26.400 U0.000 V0.000 E0.02975 F1440.0
G1 X7.821 Y-2.184 Z26.400 U0.000 V0.000 E0.02975 F1440.0
G1 X8.174 Y-1.472 Z26.400 U0.000 V0.000 E0.02975 F1440.0
G1 X8.358 Y-0.698 Z26.400 U0.000 V0.000 E0.02975 F1440.0
G1 X8.404 Y-0.286 Z26.400 U0.000 V0.000 E0.01554 F1440.0
G1 E-0.80000 F1500.0
G0 X8.404 Y-0.286 Z28.400 U0.000 V0.000 F3600.0
G0 X3.207 Y-3.347 Z28.400 U0.000 V0.000 F3600.0
G0 X3.207 Y-3.347 Z26.400 U0.000 V0.000 F3600.0
G1 E0.80000 F1200.0
G1 X4.007 Y-3.347 Z26.400 U0.000 V0.000 E0.02993 F1440.0
G1 X4.807 Y-3.347 Z26.400 U0.000 V0.000 E0.02993 F1440.0
G1 X5.607 Y-3.347 Z26.400 U0.000 V0.000 E0.02993 F1440.0
G1 X6.407 Y-3.347 Z26.400 U0.000 V0.000 E0.02993 F1440.0
G1 E-0.80000 F1500.0
G0 X6.407 Y-3.347 Z28.400 U0.000 V0.000 F3600.0
G0 X7.370 Y-2.897 Z28.400 U0.000 V0.000 F3600.0
G0 X7.370 Y-2.897 Z26.400 U0.000 V0.000 F3600.0
G1 E0.80000 F1200.0
G1 X6.570 Y-2.897 Z26.400 U0.000 V0.000 E0.02993 F1440.0
G1 X5.770 Y-2.897 Z26.400 U0.000 V0.000 E0.02993 F1440.0
G1 X4.970 Y-2.897 Z26.400 U0.000 V0.000 E0.02993 F1440.0
G1 X4.170 Y-2.897 Z26.400 U0.000 V0.000 E0.02993 F1440.0
G1 X3.370 Y-2.897 Z26.400 U0.000 V0.000 E0.02993 F1440.0
G1 X2.570 Y-2.897 Z26.400 U0.000 V0.000 E0.02993 F1440.0
G1 E-0.80000 F1500.0
G0 X2.570 Y-2.897 Z28.400 U0.000 V0.000 F3600.0
G0 X2.130 Y-2.447 Z28.400 U0.000 V0.000 F3600.0
G0 X2.130 Y-2.447 Z26.400 U0.000 V0.000 F3600.0
G1 E0.80000 F1200.0
G1 X2.930 Y-2.447 Z26.400 U0.000 V0.000 E0.02993 F1440.0
G1 X3.730 Y-2.447 Z26.400 U0.000 V0.000 E0.02993 F1440.0
G1 X4.530 Y-2.447 Z26.400 U0.000 V0.000 E0.02993 F1440.0
G1 X5.330 Y-2.447 Z26.400 U0.000 V0.000 E0.02993 F1440.0
G1 X6.130 Y-2.447 Z26.400 U0.000 V0.000 E0.02993 F1440.0
G1 X6.930 Y-2.447 Z26.400 U0.000 V0.000 E0.02993 F1440.0
G1 X7.730 Y-2.447 Z26.400 U0.000 V0.000 E0.02993 F1440.0
G1 E-0.80000 F1500.0
G0 X7.730 Y-2.447 Z28.400 U0.000 V0.000 F3600.0
G0 X8.247 Y-1.997 Z28.400 U0.000 V0.000 F3600.0
G0 X8.247 Y-1.997 Z26.400 U0.000 V0.000 F3600.0
G1 E0.80000 F1200.0
G1 X7.447 Y-1.997 Z26.400 U0.000 V0.000 E0.02993 F1440.0
G1 X6.647 Y-1.997 Z26.400 U0.000 V0.000 E0.02993 F1440.0
G1 X5.847 Y-1.997 Z26.400 U0.000 V0.000 E0.02993 F1440.0
G1 X5.047 Y-1.997 Z26.400 U0.000 V0.000 E0.02993 F1440.0
G1 X4.247 Y-1.997 Z26.400 U0.000 V0.000 E0.02993 F1440.0
G1 X3.447 Y-1.997 Z26.400 U0.000 V0.000 E0.02993 F1440.0
G1 X2.647 Y-1.997 Z26.400 U0.000 V0.000 E0.02993 F1440.0
G1 X1.847 Y-1.997 Z26.400 U0.000 V0.000 E0.02993 F1440.0
G1 E-0.80000 F1500.0
G0 X1.847 Y-1.997 Z28.400 U0.000 V0.000 F3600.0
G0 X1.638 Y-1.547 Z28.400 U0.000 V0.000 F3600.0
G0 X1.638 Y-1.547 Z26.400 U0.000 V0.000 F3600.0
G1 E0.80000 F1200.0
G1 X2.438 Y-1.547 Z26.400 U0.000 V0.000 E0.02993 F1440.0
G1 X3.238 Y-1.547 Z26.400 U0.000 V0.000 E0.02993 F1440.0
G1 X4.038 Y-1.547 Z26.400 U0.000 V0.000 E0.02993 F1440.0
G1 X4.838 Y-1.547 Z26.400 U0.000 V0.000 E0.02993 F1440.0
G1 X5.638 Y-1.547 Z26.400 U0.000 V0.000 E0.02993 F1440.0
G1 X6.438 Y-1.547 Z26.400 U0.000 V0.000 E0.02993 F1440.0
G1 X7.238 Y-1.547 Z26.400 U0.000 V0.000 E0.02993 F1440.0
G1 X8.038 Y-1.547 Z26.400 U0.000 V0.000 E0.02993 F1440.0
G1 E-0.80000 F1500.0
G0 X8.038 Y-1.547 Z28.400 U0.000 V0.000 F3600.0
G0 X8.680 Y-1.097 Z28.400 U0.000 V0.000 F3600.0
G0 X8.680 Y-1.097 Z26.400 U0.000 V0.000 F3600.0
G1 E0.80000 F1200.0
G1 X7.880 Y-1.097 Z26.400 U0.000 V0.000 E0.02993 F1440.0
G1 X7.080 Y-1.097 Z26.400 U0.000 V0.000 E0.02993 F1440.0
G1 X6.280 Y-1.097 Z26.400 U0.000 V0.000 E0.02993 F1440.0
G1 X5.480 Y-1.097 Z26.400 U0.000 V0.000 E0.02993 F1440.0
G1 X4.680 Y-1.097 Z26.400 U0.000 V0.000 E0.02993 F1440.0
G1 X3.880 Y-1.097 Z26.400 U0.000 V0.000 E0.02993 F1440.0
G1 X3.080 Y-1.097 Z26.400 U0.000 V0.000 E0.02993 F1440.0
G1 X2.280 Y-1.097 Z26.400 U0.000 V0.000 E0.02993 F1440.0
G1 X1.480 Y-1.097 Z26.400 U0.000 V0.000 E0.02993 F1440.0
G1 E-0.80000 F1500.0
G0 X1.480 Y-1.097 Z28.400 U0.000 V0.000 F3600.0
G0 X1.422 Y-0.647 Z28.400 U0.000 V0.000 F3600.0
G0 X1.422 Y-0.647 Z26.400 U0.000 V0.000 F3600.0
G1 E0.80000 F1200.0
G1 X2.222 Y-0.647 Z26.400 U0.000 V0.000 E0.02993 F1440.0
G1 X3.022 Y-0.647 Z26.400 U0.000 V0.000 E0.02993 F1440.0
G1 X3.822 Y-0.647 Z26.400 U0.000 V0.000 E0.02993 F1440.0
G1 X4.622 Y-0.647 Z26.400 U0.000 V0.000 E0.02993 F1440.0
G1 X5.422 Y-0.647 Z26.400 U0.000 V0.000 E0.02993 F1440.0
G1 X6.222 Y-0.647 Z26.400 U0.000 V0.000 E0.02993 F1440.0
G1 X7.022 Y-0.647 Z26.400 U0.000 V0.000 E0.02993 F1440.0
G1 X7.822 Y-0.647 Z26.400 U0.000 V0.000 E0.02993 F1440.0
G1 X8.622 Y-0.647 Z26.400 U0.000 V0.000 E0.02993 F1440.0
G1 E-0.80000 F1500.0
G0 X8.622 Y-0.647 Z28.400 U0.000 V0.000 F3600.0
G0 X8.592 Y-0.197 Z28.400 U0.000 V0.000 F3600.0
G0 X8.592 Y-0.197 Z26.400 U0.000 V0.000 F3600.0
G1 E0.80000 F1200.0
G1 X7.792 Y-0.197 Z26.400 U0.000 V0.000 E0.02993 F1440.0
G1 X6.992 Y-0.197 Z26.400 U0.000 V0.000 E0.02993 F1440.0
G1 X6.192 Y-0.197 Z26.400 U0.000 V0.000 E0.02993 F1440.0
G1 X5.392 Y-0.197 Z26.400 U0.000 V0.000 E0.02993 F1440.0
G1 X4.592 Y-0.197 Z26.400 U0.000 V0.000 E0.02993 F1440.0
G1 X3.792 Y-0.197 Z26.400 U0.000 V0.000 E0.02993 F1440.0
G1 X2.992 Y-0.197 Z26.400 U0.000 V0.000 E0.02993 F1440.0
G1 X2.192 Y-0.197 Z26.400 U0.000 V0.000 E0.02993 F1440.0
G1 X1.392 Y-0.197 Z26.400 U0.000 V0.000 E0.02993 F1440.0
G1 E-0.80000 F1500.0
G0 X1.392 Y-0.197 Z28.400 U0.000 V0.000 F3600.0
G0 X1.442 Y0.253 Z28.400 U0.000 V0.000 F3600.0
G0 X1.442 Y0.253 Z26.400 U0.000 V0.000 F3600.0
G1 E0.80000 F1200.0
G1 X2.242 Y0.253 Z26.400 U0.000 V0.000 E0.02993 F1440.0
G1 X3.042 Y0.253 Z26.400 U0.000 V0.000 E0.02993 F1440.0
G1 X3.842 Y0.253 Z26.400 U0.000 V0.000 E0.02993 F1440.0
G1 X4.642 Y0.253 Z26.400 U0.000 V0.000 E0.02993 F1440.0
G1 X5.442 Y0.253 Z26.400 U0.000 V0.000 E0.02993 F1440.0
G1 X6.242 Y0.253 Z26.400 U0.000 V0.000 E0.02993 F1440.0
G1 X7.042 Y0.253 Z26.400 U0.000 V0.000 E0.02993 F1440.0
G1 X7.842 Y0.253 Z26.400 U0.000 V0.000 E0.02993 F1440.0
G1 X8.642 Y0.253 Z26.400 U0.000 V0.000 E0.02993 F1440.0
G1 E-0.80000 F1500.0
G0 X8.642 Y0.253 Z28.400 U0.000 V0.000 F3600.0
G0 X7.942 Y0.703 Z28.400 U0.000 V0.000 F3600.0
G0 X7.942 Y0.703 Z26.400 U0.000 V0.000 F3600.0
G1 E0.80000 F1200.0
G1 X7.142 Y0.703 Z26.400 U0.000 V0.000 E0.02993 F1440.0
G1 X6.342 Y0.703 Z26.400 U0.000 V0.000 E0.02993 F1440.0
G1 X5.542 Y0.703 Z26.400 U0.000 V0.000 E0.02993 F1440.0
G1 X4.742 Y0.703 Z26.400 U0.000 V0.000 E0.02993 F1440.0
G1 X3.942 Y0.703 Z26.400 U0.000 V0.000 E0.02993 F1440.0
G1 X3.142 Y0.703 Z26.400 U0.000 V0.000 E0.02993 F1440.0
G1 X2.342 Y0.703 Z26.400 U0.000 V0.000 E0.02993 F1440.0
G1 X1.542 Y0.703 Z26.400 U0.000 V0.000 E0.02993 F1440.0
G1 E-0.80000 F1500.0
G0 X1.542 Y0.703 Z28.400 U0.000 V0.000 F3600.0
G0 X1.700 Y1.153 Z28.400 U0.000 V0.000 F3600.0
G0 X1.700 Y1.153 Z26.400 U0.000 V0.000 F3600.0
G1 E0.80000 F1200.0
G1 X2.500 Y1.153 Z26.400 U0.000 V0.000 E0.02993 F1440.0
G1 X3.300 Y1.153 Z26.400 U0.000 V0.000 E0.02993 F1440.0
G1 X4.100 Y1.153 Z26.400 U0.000 V0.000 E0.02993 F1440.0
G1 X4.900 Y1.153 Z26.400 U0.000 V0.000 E0.02993 F1440.0
G1 X5.700 Y1.153 Z26.400 U0.000 V0.000 E0.02993 F1440.0
G1 X6.500 Y1.153 Z26.400 U0.000 V0.000 E0.02993 F1440.0
G1 X7.300 Y1.153 Z26.400 U0.000 V0.000 E0.02993 F1440.0
G1 X8.100 Y1.153 Z26.400 U0.000 V0.000 E0.02993 F1440.0
G1 E-0.80000 F1500.0
G0 X8.100 Y1.153 Z28.400 U0.000 V0.000 F3600.0
G0 X7.559 Y1.603 Z28.400 U0.000 V0.000 F3600.0
G0 X7.559 Y1.603 Z26.400 U0.000 V0.000 F3600.0
G1 E0.80000 F1200.0
G1 X6.759 Y1.603 Z26.400 U0.000 V0.000 E0.02993 F1440.0
G1 X5.959 Y1.603 Z26.400 U0.000 V0.000 E0.02993 F1440.0
G1 X5.159 Y1.603 Z26.400 U0.000 V0.000 E0.02993 F1440.0
G1 X4.359 Y1.603 Z26.400 U0.000 V0.000 E0.02993 F1440.0
G1 X3.559 Y1.603 Z26.400 U0.000 V0.000 E0.02993 F1440.0
G1 X2.759 Y1.603 Z26.400 U0.000 V0.000 E0.02993 F1440.0
G1 X1.959 Y1.603 Z26.400 U0.000 V0.000 E0.02993 F1440.0
G1 E-0.80000 F1500.0
G0 X1.959 Y1.603 Z28.400 U0.000 V0.000 F3600.0
G0 X2.297 Y2.053 Z28.400 U0.000 V0.000 F3600.0
G0 X2.297 Y2.053 Z26.400 U0.000 V0.000 F3600.0
G1 E0.80000 F1200.0
G1 X3.097 Y2.053 Z26.400 U0.000 V0.000 E0.02993 F1440.0
G1 X3.897 Y2.053 Z26.400 U0.000 V0.000 E0.02993 F1440.0
G1 X4.697 Y2.053 Z26.400 U0.000 V0.000 E0.02993 F1440.0
G1 X5.497 Y2.053 Z26.400 U0.000 V0.000 E0.02993 F1440.0
G1 X6.297 Y2.053 Z26.400 U0.000 V0.000 E0.02993 F1440.0
G1 X7.097 Y2.053 Z26.400 U0.000 V0.000 E0.02993 F1440.0
G1 E-0.80000 F1500.0
G0 X7.097 Y2.053 Z28.400 U0.000 V0.000 F3600.0
G0 X6.773 Y2.503 Z28.400 U0.000 V0.000 F3600.0
G0 X6.773 Y2.503 Z26.400 U0.000 V0.000 F3600.0
G1 E0.80000 F1200.0
G1 X5.973 Y2.503 Z26.400 U0.000 V0.000 E0.02993 F1440.0
G1 X5.173 Y2.503 Z26.400 U0.000 V0.000 E0.02993 F1440.0
G1 X4.373 Y2.503 Z26.400 U0.000 V0.000 E0.02993 F1440.0
G1 X3.573 Y2.503 Z26.400 U0.000 V0.000 E0.02993 F1440.0
G1 X2.773 Y2.503 Z26.400 U0.000 V0.000 E0.02993 F1440.0
G1 E-0.80000 F1500.0
G0 X2.773 Y2.503 Z28.400 U0.000 V0.000 F3600.0
G0 X3.585 Y2.953 Z28.400 U0.000 V0.000 F3600.0
G0 X3.585 Y2.953 Z26.400 U0.000 V0.000 F3600.0
G1 E0.80000 F1200.0
G1 X4.385 Y2.953 Z26.400 U0.000 V0.000 E0.02993 F1440.0
G1 X5.185 Y2.953 Z26.400 U0.000 V0.000 E0.02993 F1440.0
G1 X5.985 Y2.953 Z26.400 U0.000 V0.000 E0.02993 F1440.0
G1 E-0.80000 F1500.0
G0 X5.985 Y2.953 Z28.400 U0.000 V0.000 F3600.0
G0 X8.699 Y-0.286 Z28.600 U0.000 V0.000 F3600.0
G0 X8.699 Y-0.286 Z26.600 U0.000 V0.000 F3600.0
G1 E0.80000 F1200.0
G1 X8.614 Y0.510 Z26.600 U0.000 V0.000 E0.02993 F1440.0
G1 X8.365 Y1.270 Z26.600 U0.000 V0.000 E0.02993 F1440.0
G1 X7.963 Y1.961 Z26.600 U0.000 V0.000 E0.02992 F1440.0
G1 X7.425 Y2.553 Z26.600 U0.000 V0.000 E0.02992 F1440.0
G1 X6.776 Y3.019 Z26.600 U0.000 V0.000 E0.02992 F1440.0
G1 X6.043 Y3.339 Z26.600 U0.000 V0.000 E0.02991 F1440.0
G1 X5.260 Y3.499 Z26.600 U0.000 V0.000 E0.02991 F1440.0
G1 X4.461 Y3.492 Z26.600 U0.000 V0.000 E0.02991 F1440.0
G1 X3.681 Y3.318 Z26.600 U0.000 V0.000 E0.02990 F1440.0
G1 X2.955 Y2.985 Z26.600 U0.000 V0.000 E0.02990 F1440.0
G1 X2.314 Y2.507 Z26.600 U0.000 V0.000 E0.02990 F1440.0
G1 X1.788 Y1.906 Z26.600 U0.000 V0.000 E0.02989 F1440.0
G1 X1.399 Y1.209 Z26.600 U0.000 V0.000 E0.02989 F1440.0
G1 X1.164 Y0.445 Z26.600 U0.000 V0.000 E0.02989 F1440.0
G1 X1.094 Y-0.350 Z26.600 U0.000 V0.000 E0.02989 F1440.0
G1 X1.192 Y-1.143 Z26.600 U0.000 V0.000 E0.02988 F1440.0
G1 X1.453 Y-1.898 Z26.600 U0.000 V0.000 E0.02988 F1440.0
G1 X1.866 Y-2.581 Z26.600 U0.000 V0.000 E0.02988 F1440.0
G1 X2.413 Y-3.163 Z26.600 U0.000 V0.000 E0.02987 F1440.0
G1 X3.069 Y-3.617 Z26.600 U0.000 V0.000 E0.02987 F1440.0
G1 X3.806 Y-3.924 Z26.600 U0.000 V0.000 E0.02987 F1440.0
G1 X4.591 Y-4.071 Z26.600 U0.000 V0.000 E0.02987 F1440.0
G1 X5.388 Y-4.050 Z26.600 U0.000 V0.000 E0.02986 F1440.0
G1 X6.164 Y-3.863 Z26.600 U0.000 V0.000 E0.02986 F1440.0
G1 X6.884 Y-3.518 Z26.600 U0.000 V0.000 E0.02986 F1440.0
G1 X7.515 Y-3.030 Z26.600 U0.000 V0.000 E0.02985 F1440.0
G1 X8.031 Y-2.421 Z26.600 U0.000 V0.000 E0.02985 F1440.0
G1 X8.407 Y-1.718 Z26.600 U0.000 V0.000 E0.02985 F1440.0
G1 X8.629 Y-0.952 Z26.600 U0.000 V0.000 E0.02985 F1440.0
G1 X8.699 Y-0.286 Z26.600 U0.000 V0.000 E0.02506 F1440.0
G1 E-0.80000 F1500.0
G0 X8.699 Y-0.286 Z28.600 U0.000 V0.000 F3600.0
G0 X7.078 Y-3.621 Z28.600 U0.000 V0.000 F3600.0
G0 X7.078 Y-3.621 Z26.600 U0.000 V0.000 F3600.0
G1 E0.80000 F1200.0
G1 X6.278 Y-3.621 Z26.600 U0.000 V0.000 E0.02993 F1440.0
G1 X5.478 Y-3.621 Z26.600 U0.000 V0.000 E0.02993 F1440.0
G1 X4.678 Y-3.621 Z26.600 U0.000 V0.000 E0.02993 F1440.0
G1 X3.878 Y-3.621 Z26.600 U0.000 V0.000 E0.02993 F1440.0
G1 X3.078 Y-3.621 Z26.600 U0.000 V0.000 E0.02993 F1440.0
G1 E-0.80000 F1500.0
G0 X3.078 Y-3.621 Z28.600 U0.000 V0.000 F3600.0
G0 X2.424 Y-3.171 Z28.600 U0.000 V0.000 F3600.0
G0 X2.424 Y-3.171 Z26.600 U0.000 V0.000 F3600.0
G1 E0.80000 F1200.0
G1 X3.224 Y-3.171 Z26.600 U0.000 V0.000 E0.02993 F1440.0
G1 X4.024 Y-3.171 Z26.600 U0.000 V0.000 E0.02993 F1440.0
G1 X4.824 Y-3.171 Z26.600 U0.000 V0.000 E0.02993 F1440.0
G1 X5.624 Y-3.171 Z26.600 U0.000 V0.000 E0.02993 F1440.0
G1 X6.424 Y-3.171 Z26.600 U0.000 V0.000 E0.02993 F1440.0
G1 X7.224 Y-3.171 Z26.600 U0.000 V0.000 E0.02993 F1440.0
G1 E-0.80000 F1500.0
G0 X7.224 Y-3.171 Z28.600 U0.000 V0.000 F3600.0
G0 X7.592 Y-2.721 Z28.600 U0.000 V0.000 F3600.0
G0 X7.592 Y-2.721 Z26.600 U0.000 V0.000 F3600.0
G1 E0.80000 F1200.0
G1 X6.792 Y-2.721 Z26.600 U0.000 V0.000 E0.02993 F1440.0
G1 X5.992 Y-2.721 Z26.600 U0.000 V0.000 E0.02993 F1440.0
G1 X5.192 Y-2.721 Z26.600 U0.000 V0.000 E0.02993 F1440.0
G1 X4.392 Y-2.721 Z26.600 U0.000 V0.000 E0.02993 F1440.0
G1 X3.592 Y-2.721 Z26.600 U0.000 V0.000 E0.02993 F1440.0
G1 X2.792 Y-2.721 Z26.600 U0.000 V0.000 E0.02993 F1440.0
G1 X1.992 Y-2.721 Z26.600 U0.000 V0.000 E0.02993 F1440.0
G1 E-0.80000 F1500.0
G0 X1.992 Y-2.721 Z28.600 U0.000 V0.000 F3600.0
G0 X1.668 Y-2.271 Z28.600 U0.000 V0.000 F3600.0
G0 X1.668 Y-2.271 Z26.600 U0.000 V0.000 F3600.0
G1 E0.80000 F1200.0
G1 X2.468 Y-2.271 Z26.600 U0.000 V0.000 E0.02993 F1440.0
G1 X3.268 Y-2.271 Z26.600 U0.000 V0.000 E0.02993 F1440.0
G1 X4.068 Y-2.271 Z26.600 U0.000 V0.000 E0.02993 F1440.0
G1 X4.868 Y-2.271 Z26.600 U0.000 V0.000 E0.02993 F1440.0
G1 X5.668 Y-2.271 Z26.600 U0.000 V0.000 E0.02993 F1440.0
G1 X6.468 Y-2.271 Z26.600 U0.000 V0.000 E0.02993 F1440.0
G1 X7.268 Y-2.271 Z26.600 U0.000 V0.000 E0.02993 F1440.0
G1 X8.068 Y-2.271 Z26.600 U0.000 V0.000 E0.02993 F1440.0
G1 E-0.80000 F1500.0
G0 X8.068 Y-2.271 Z28.600 U0.000 V0.000 F3600.0
G0 X8.612 Y-1.821 Z28.600 U0.000 V0.000 F3600.0
G0 X8.612 Y-1.821 Z26.600 U0.000 V0.000 F3600.0
G1 E0.80000 F1200.0
G1 X7.812 Y-1.821 Z26.600 U0.000 V0.000 E0.02993 F1440.0
G1 X7.012 Y-1.821 Z26.600 U0.000 V0.000 E0.02993 F1440.0
G1 X6.212 Y-1.821 Z26.600 U0.000 V0.000 E0.02993 F1440.0
G1 X5.412 Y-1.821 Z26.600 U0.000 V0.000 E0.02993 F1440.0
G1 X4.612 Y-1.821 Z26.600 U0.000 V0.000 E0.02993 F1440.0
G1 X3.812 Y-1.821 Z26.600 U0.000 V0.000 E0.02993 F1440.0
G1 X3.012 Y-1.821 Z26.600 U0.000 V0.000 E0.02993 F1440.0
G1 X2.212 Y-1.821 Z26.600 U0.000 V0.000 E0.02993 F1440.0
G1 X1.412 Y-1.821 Z26.600 U0.000 V0.000 E0.02993 F1440.0
G1 E-0.80000 F1500.0
G0 X1.412 Y-1.821 Z28.600 U0.000 V0.000 F3600.0
G0 X1.266 Y-1.371 Z28.600 U0.000 V0.000 F3600.0
G0 X1.266 Y-1.371 Z26.600 U0.000 V0.000 F3600.0
G1 E0.80000 F1200.0
G1 X2.066 Y-1.371 Z26.600 U0.000 V0.000 E0.02993 F1440.0
G1 X2.866 Y-1.371 Z26.600 U0.000 V0.000 E0.02993 F1440.0
G1 X3.666 Y-1.371 Z26.600 U0.000 V0.000 E0.02993 F1440.0
G1 X4.466 Y-1.371 Z26.600 U0.000 V0.000 E0.02993 F1440.0
G1 X5.266 Y-1.371 Z26.600 U0.000 V0.000 E0.02993 F1440.0
G1 X6.066 Y-1.371 Z26.600 U0.000 V0.000 E0.02993 F1440.0
G1 X6.866 Y-1.371 Z26.600 U0.000 V0.000 E0.02993 F1440.0
G1 X7.666 Y-1.371 Z26.600 U0.000 V0.000 E0.02993 F1440.0
G1 X8.466 Y-1.371 Z26.600 U0.000 V0.000 E0.02993 F1440.0
G1 E-0.80000 F1500.0
G0 X8.466 Y-1.371 Z28.600 U0.000 V0.000 F3600.0
G0 X8.354 Y-0.921 Z28.600 U0.000 V0.000 F3600.0
G0 X8.354 Y-0.921 Z26.600 U0.000 V0.000 F3600.0
G1 E0.80000 F1200.0
G1 X7.554 Y-0.921 Z26.600 U0.000 V0.000 E0.02993 F1440.0
G1 X6.754 Y-0.921 Z26.600 U0.000 V0.000 E0.02993 F1440.0
G1 X5.954 Y-0.921 Z26.600 U0.000 V0.000 E0.02993 F1440.0
G1 X5.154 Y-0.921 Z26.600 U0.000 V0.000 E0.02993 F1440.0
G1 X4.354 Y-0.921 Z26.600 U0.000 V0.000 E0.02993 F1440.0
G1 X3.554 Y-0.921 Z26.600 U0.000 V0.000 E0.02993 F1440.0
G1 X2.754 Y-0.921 Z26.600 U0.000 V0.000 E0.02993 F1440.0
G1 X1.954 Y-0.921 Z26.600 U0.000 V0.000 E0.02993 F1440.0
G1 X1.154 Y-0.921 Z26.600 U0.000 V0.000 E0.02993 F1440.0
G1 E-0.80000 F1500.0
G0 X1.154 Y-0.921 Z28.600 U0.000 V0.000 F3600.0
G0 X1.106 Y-0.471 Z28.600 U0.000 V0.000 F3600.0
G0 X1.106 Y-0.471 Z26.600 U0.000 V0.000 F3600.0
G1 E0.80000 F1200.0
G1 X1.906 Y-0.471 Z26.600 U0.000 V0.000 E0.02993 F1440.0
G1 X2.706 Y-0.471 Z26.600 U0.000 V0.000 E0.02993 F1440.0
G1 X3.506 Y-0.471 Z26.600 U0.000 V0.000 E0.02993 F1440.0
G1 X4.306 Y-0.471 Z26.600 U0.000 V0.000 E0.02993 F1440.0
G1 X5.106 Y-0.471 Z26.600 U0.000 V0.000 E0.02993 F1440.0
G1 X5.906 Y-0.471 Z26.600 U0.000 V0.000 E0.02993 F1440.0
G1 X6.706 Y-0.471 Z26.600 U0.000 V0.000 E0.02993 F1440.0
G1 X7.506 Y-0.471 Z26.600 U0.000 V0.000 E0.02993 F1440.0
G1 X8.306 Y-0.471 Z26.600 U0.000 V0.000 E0.02993 F1440.0
G1 E-0.80000 F1500.0
G0 X8.306 Y-0.471 Z28.600 U0.000 V0.000 F3600.0
G0 X8.315 Y-0.021 Z28.600 U0.000 V0.000 F3600.0
G0 X8.315 Y-0.021 Z26.600 U0.000 V0.000 F3600.0
G1 E0.80000 F1200.0
G1 X7.515 Y-0.021 Z26.600 U0.000 V0.000 E0.02993 F1440.0
G1 X6.715 Y-0.021 Z26.600 U0.000 V0.000 E0.02993 F1440.0
G1 X5.915 Y-0.021 Z26.600 U0.000 V0.000 E0.02993 F1440.0
G1 X5.115 Y-0.021 Z26.600 U0.000 V0.000 E0.02993 F1440.0
G1 X4.315 Y-0.021 Z26.600 U0.000 V0.000 E0.02993 F1440.0
G1 X3.515 Y-0.021 Z26.600 U0.000 V0.000 E0.02993 F1440.0
G1 X2.715 Y-0.021 Z26.600 U0.000 V0.000 E0.02993 F1440.0
G1 X1.915 Y-0.021 Z26.600 U0.000 V0.000 E0.02993 F1440.0
G1 X1.115 Y-0.021 Z26.600 U0.000 V0.000 E0.02993 F1440.0
G1 E-0.80000 F1500.0
G0 X1.115 Y-0.021 Z28.600 U0.000 V0.000 F3600.0
G0 X1.162 Y0.429 Z28.600 U0.000 V0.000 F3600.0
G0 X1.162 Y0.429 Z26.600 U0.000 V0.000 F3600.0
G1 E0.80000 F1200.0
G1 X1.962 Y0.429 Z26.600 U0.000 V0.000 E0.02993 F1440.0
G1 X2.762 Y0.429 Z26.600 U0.000 V0.000 E0.02993 F1440.0
G1 X3.562 Y0.429 Z26.600 U0.000 V0.000 E0.02993 F1440.0
G1 X4.362 Y0.429 Z26.600 U0.000 V0.000 E0.02993 F1440.0
G1 X5.162 Y0.429 Z26.600 U0.000 V0.000 E0.02993 F1440.0
G1 X5.962 Y0.429 Z26.600 U0.000 V0.000 E0.02993 F1440.0
G1 X6.762 Y0.429 Z26.600 U0.000 V0.000 E0.02993 F1440.0
G1 X7.562 Y0.429 Z26.600 U0.000 V0.000 E0.02993 F1440.0
G1 X8.362 Y0.429 Z26.600 U0.000 V0.000 E0.02993 F1440.0
G1 E-0.80000 F1500.0
G0 X8.362 Y0.429 Z28.600 U0.000 V0.000 F3600.0
G0 X8.491 Y0.879 Z28.600 U0.000 V0.000 F3600.0
G0 X8.491 Y0.879 Z26.600 U0.000 V0.000 F3600.0
G1 E0.80000 F1200.0
G1 X7.691 Y0.879 Z26.600 U0.000 V0.000 E0.02993 F1440.0
G1 X6.891 Y0.879 Z26.600 U0.000 V0.000 E0.02993 F1440.0
G1 X6.091 Y0.879 Z26.600 U0.000 V0.000 E0.02993 F1440.0
G1 X5.291 Y0.879 Z26.600 U0.000 V0.000 E0.02993 F1440.0
G1 X4.491 Y0.879 Z26.600 U0.000 V0.000 E0.02993 F1440.0
G1 X3.691 Y0.879 Z26.600 U0.000 V0.000 E0.02993 F1440.0
G1 X2.891 Y0.879 Z26.600 U0.000 V0.000 E0.02993 F1440.0
G1 X2.091 Y0.879 Z26.600 U0.000 V0.000 E0.02993 F1440.0
G1 X1.291 Y0.879 Z26.600 U0.000 V0.000 E0.02993 F1440.0
G1 E-0.80000 F1500.0
G0 X1.291 Y0.879 Z28.600 U0.000 V0.000 F3600.0
G0 X1.455 Y1.329 Z28.600 U0.000 V0.000 F3600.0
G0 X1.455 Y1.329 Z26.600 U0.000 V0.000 F3600.0
G1 E0.80000 F1200.0
G1 X2.255 Y1.329 Z26.600 U0.000 V0.000 E0.02993 F1440.0
G1 X3.055 Y1.329 Z26.600 U0.000 V0.000 E0.02993 F1440.0
G1 X3.855 Y1.329 Z26.600 U0.000 V0.000 E0.02993 F1440.0
G1 X4.655 Y1.329 Z26.600 U0.000 V0.000 E0.02993 F1440.0
G1 X5.455 Y1.329 Z26.600 U0.000 V0.000 E0.02993 F1440.0
G1 X6.255 Y1.329 Z26.600 U0.000 V0.000 E0.02993 F1440.0
G1 X7.055 Y1.329 Z26.600 U0.000 V0.000 E0.02993 F1440.0
G1 X7.855 Y1.329 Z26.600 U0.000 V0.000 E0.02993 F1440.0
G1 X8.655 Y1.329 Z26.600 U0.000 V0.000 E0.02993 F1440.0
G1 E-0.80000 F1500.0
G0 X8.655 Y1.329 Z28.600 U0.000 V0.000 F3600.0
G0 X8.114 Y1.779 Z28.600 U0.000 V0.000 F3600.0
G0 X8.114 Y1.779 Z26.600 U0.000 V0.000 F3600.0
G1 E0.80000 F1200.0
G1 X7.314 Y1.779 Z26.600 U0.000 V0.000 E0.02993 F1440.0
G1 X6.514 Y1.779 Z26.600 U0.000 V0.000 E0.02993 F1440.0
G1 X5.714 Y1.779 Z26.600 U0.000 V0.000 E0.02993 F1440.0
G1 X4.914 Y1.779 Z26.600 U0.000 V0.000 E0.02993 F1440.0
G1 X4.114 Y1.779 Z26.600 U0.000 V0.000 E0.02993 F1440.0
G1 X3.314 Y1.779 Z26.600 U0.000 V0.000 E0.02993 F1440.0
G1 X2.514 Y1.779 Z26.600 U0.000 V0.000 E0.02993 F1440.0
G1 X1.714 Y1.779 Z26.600 U0.000 V0.000 E0.02993 F1440.0
G1 E-0.80000 F1500.0
G0 X1.714 Y1.779 Z28.600 U0.000 V0.000 F3600.0
G0 X2.064 Y2.229 Z28.600 U0.000 V0.000 F3600.0
G0 X2.064 Y2.229 Z26.600 U0.000 V0.000 F3600.0
G1 E0.80000 F1200.0
G1 X2.864 Y2.229 Z26.600 U0.000 V0.000 E0.02993 F1440.0
G1 X3.664 Y2.229 Z26.600 U0.000 V0.000 E0.02993 F1440.0
G1 X4.464 Y2.229 Z26.600 U0.000 V0.000 E0.02993 F1440.0
G1 X5.264 Y2.229 Z26.600 U0.000 V0.000 E0.02993 F1440.0
G1 X6.064 Y2.229 Z26.600 U0.000 V0.000 E0.02993 F1440.0
G1 X6.864 Y2.229 Z26.600 U0.000 V0.000 E0.02993 F1440.0
G1 X7.664 Y2.229 Z26.600 U0.000 V0.000 E0.02993 F1440.0
G1 E-0.80000 F1500.0
G0 X7.664 Y2.229 Z28.600 U0.000 V0.000 F3600.0
G0 X7.334 Y2.679 Z28.600 U0.000 V0.000 F3600.0
G0 X7.334 Y2.679 Z26.600 U0.000 V0.000 F3600.0
G1 E0.80000 F1200.0
G1 X6.534 Y2.679 Z26.600 U0.000 V0.000 E0.02993 F1440.0
G1 X5.734 Y2.679 Z26.600 U0.000 V0.000 E0.02993 F1440.0
G1 X4.934 Y2.679 Z26.600 U0.000 V0.000 E0.02993 F1440.0
G1 X4.134 Y2.679 Z26.600 U0.000 V0.000 E0.02993 F1440.0
G1 X3.334 Y2.679 Z26.600 U0.000 V0.000 E0.02993 F1440.0
G1 X2.534 Y2.679 Z26.600 U0.000 V0.000 E0.02993 F1440.0
G1 E-0.80000 F1500.0
G0 X2.534 Y2.679 Z28.600 U0.000 V0.000 F3600.0
G0 X3.257 Y3.129 Z28.600 U0.000 V0.000 F3600.0
G0 X3.257 Y3.129 Z26.600 U0.000 V0.000 F3600.0
G1 E0.80000 F1200.0
G1 X4.057 Y3.129 Z26.600 U0.000 V0.000 E0.02993 F1440.0
G1 X4.857 Y3.129 Z26.600 U0.000 V0.000 E0.02993 F1440.0
G1 X5.657 Y3.129 Z26.600 U0.000 V0.000 E0.02993 F1440.0
G1 X6.457 Y3.129 Z26.600 U0.000 V0.000 E0.02993 F1440.0
G1 E-0.80000 F1500.0
G0 X6.457 Y3.129 Z28.600 U0.000 V0.000 F3600.0
G0 X9.001 Y-0.286 Z28.800 U0.000 V0.000 F3600.0
G0 X9.001 Y-0.286 Z26.800 U0.000 V0.000 F3600.0
G1 E0.80000 F1200.0
G1 X8.921 Y0.510 Z26.800 U0.000 V0.000 E0.02992 F1440.0
G1 X8.689 Y1.275 Z26.800 U0.000 V0.000 E0.02991 F1440.0
G1 X8.313 Y1.980 Z26.800 U0.000 V0.000 E0.02990 F1440.0
G1 X7.808 Y2.599 Z26.800 U0.000 V0.000 E0.02989 F1440.0
G1 X7.193 Y3.108 Z26.800 U0.000 V0.000 E0.02988 F1440.0
G1 X6.491 Y3.488 Z26.800 U0.000 V0.000 E0.02987 F1440.0
G1 X5.729 Y3.725 Z26.800 U0.000 V0.000 E0.02986 F1440.0
G1 X4.936 Y3.810 Z26.800 U0.000 V0.000 E0.02985 F1440.0
G1 X4.142 Y3.740 Z26.800 U0.000 V0.000 E0.02984 F1440.0
G1 X3.376 Y3.517 Z26.800 U0.000 V0.000 E0.02984 F1440.0
G1 X2.668 Y3.150 Z26.800 U0.000 V0.000 E0.02983 F1440.0
G1 X2.045 Y2.653 Z26.800 U0.000 V0.000 E0.02982 F1440.0
G1 X1.530 Y2.045 Z26.800 U0.000 V0.000 E0.02982 F1440.0
G1 X1.143 Y1.349 Z26.800 U0.000 V0.000 E0.02981 F1440.0
G1 X0.897 Y0.591 Z26.800 U0.000 V0.000 E0.02981 F1440.0
G1 X0.804 Y-0.200 Z26.800 U0.000 V0.000 E0.02981 F1440.0
G1 X0.865 Y-0.994 Z26.800 U0.000 V0.000 E0.02980 F1440.0
G1 X1.079 Y-1.762 Z26.800 U0.000 V0.000 E0.02980 F1440.0
G1 X1.438 Y-2.473 Z26.800 U0.000 V0.000 E0.02980 F1440.0
G1 X1.927 Y-3.101 Z26.800 U0.000 V0.000 E0.02980 F1440.0
G1 X2.529 Y-3.622 Z26.800 U0.000 V0.000 E0.02980 F1440.0
G1 X3.220 Y-4.017 Z26.800 U0.000 V0.000 E0.02980 F1440.0
G1 X3.975 Y-4.271 Z26.800 U0.000 V0.000 E0.02980 F1440.0
G1 X4.765 Y-4.373 Z26.800 U0.000 V0.000 E0.02980 F1440.0
G1 X5.560 Y-4.321 Z26.800 U0.000 V0.000 E0.02980 F1440.0
G1 X6.330 Y-4.116 Z26.800 U0.000 V0.000 E0.02981 F1440.0
G1 X7.045 Y-3.765 Z26.800 U0.000 V0.000 E0.02981 F1440.0
G1 X7.679 Y-3.282 Z26.800 U0.000 V0.000 E0.02981 F1440.0
G1 X8.208 Y-2.686 Z26.800 U0.000 V0.000 E0.02982 F1440.0
G1 X8.611 Y-1.998 Z26.800 U0.000 V0.000 E0.02982 F1440.0
G1 X8.873 Y-1.245 Z26.800 U0.000 V0.000 E0.02983 F1440.0
G1 X8.984 Y-0.456 Z26.800 U0.000 V0.000 E0.02984 F1440.0
G1 X9.001 Y-0.286 Z26.800 U0.000 V0.000 E0.00640 F1440.0
G1 E-0.80000 F1500.0
G0 X9.001 Y-0.286 Z28.800 U0.000 V0.000 F3600.0
G0 X3.048 Y-3.939 Z28.800 U0.000 V0.000 F3600.0
G0 X3.048 Y-3.939 Z26.800 U0.000 V0.000 F3600.0
G1 E0.80000 F1200.0
G1 X3.848 Y-3.939 Z26.800 U0.000 V0.000 E0.02993 F1440.0
G1 X4.648 Y-3.939 Z26.800 U0.000 V0.000 E0.02993 F1440.0
G1 X5.448 Y-3.939 Z26.800 U0.000 V0.000 E0.02993 F1440.0
G1 X6.248 Y-3.939 Z26.800 U0.000 V0.000 E0.02993 F1440.0
G1 X7.048 Y-3.939 Z26.800 U0.000 V0.000 E0.02993 F1440.0
G1 E-0.80000 F1500.0
G0 X7.048 Y-3.939 Z28.800 U0.000 V0.000 F3600.0
G0 X7.141 Y-3.489 Z28.800 U0.000 V0.000 F3600.0
G0 X7.141 Y-3.489 Z26.800 U0.000 V0.000 F3600.0
G1 E0.80000 F1200.0
G1 X6.341 Y-3.489 Z26.800 U0.000 V0.000 E0.02993 F1440.0
G1 X5.541 Y-3.489 Z26.800 U0.000 V0.000 E0.02993 F1440.0
G1 X4.741 Y-3.489 Z26.800 U0.000 V0.000 E0.02993 F1440.0
G1 X3.941 Y-3.489 Z26.800 U0.000 V0.000 E0.02993 F1440.0
G1 X3.141 Y-3.489 Z26.800 U0.000 V0.000 E0.02993 F1440.0
G1 X2.341 Y-3.489 Z26.800 U0.000 V0.000 E0.02993 F1440.0
G1 E-0.80000 F1500.0
G0 X2.341 Y-3.489 Z28.800 U0.000 V0.000 F3600.0
G0 X1.868 Y-3.039 Z28.800 U0.000 V0.000 F3600.0
G0 X1.868 Y-3.039 Z26.800 U0.000 V0.000 F3600.0
G1 E0.80000 F1200.0
G1 X2.668 Y-3.039 Z26.800 U0.000 V0.000 E0.02993 F1440.0
G1 X3.468 Y-3.039 Z26.800 U0.000 V0.000 E0.02993 F1440.0
G1 X4.268 Y-3.039 Z26.800 U0.000 V0.000 E0.02993 F1440.0
G1 X5.068 Y-3.039 Z26.800 U0.000 V0.000 E0.02993 F1440.0
G1 X5.868 Y-3.039 Z26.800 U0.000 V0.000 E0.02993 F1440.0
G1 X6.668 Y-3.039 Z26.800 U0.000 V0.000 E0.02993 F1440.0
G1 X7.468 Y-3.039 Z26.800 U0.000 V0.000 E0.02993 F1440.0
G1 X8.268 Y-3.039 Z26.800 U0.000 V0.000 E0.02993 F1440.0
G1 E-0.80000 F1500.0
G0 X8.268 Y-3.039 Z28.800 U0.000 V0.000 F3600.0
G0 X7.912 Y-2.589 Z28.800 U0.000 V0.000 F3600.0
G0 X7.912 Y-2.589 Z26.800 U0.000 V0.000 F3600.0
G1 E0.80000 F1200.0
G1 X7.112 Y-2.589 Z26.800 U0.000 V0.000 E0.02993 F1440.0
G1 X6.312 Y-2.589 Z26.800 U0.000 V0.000 E0.02993 F1440.0
G1 X5.512 Y-2.589 Z26.800 U0.000 V0.000 E0.02993 F1440.0
G1 X4.712 Y-2.589 Z26.800 U0.000 V0.000 E0.02993 F1440.0
G1 X3.912 Y-2.589 Z26.800 U0.000 V0.000 E0.02993 F1440.0
G1 X3.112 Y-2.589 Z26.800 U0.000 V0.000 E0.02993 F1440.0
G1 X2.312 Y-2.589 Z26.800 U0.000 V0.000 E0.02993 F1440.0
G1 X1.512 Y-2.589 Z26.800 U0.000 V0.000 E0.02993 F1440.0
G1 E-0.80000 F1500.0
G0 X1.512 Y-2.589 Z28.800 U0.000 V0.000 F3600.0
G0 X1.230 Y-2.139 Z28.800 U0.000 V0.000 F3600.0
G0 X1.230 Y-2.139 Z26.800 U0.000 V0.000 F3600.0
G1 E0.80000 F1200.0
G1 X2.030 Y-2.139 Z26.800 U0.000 V0.000 E0.02993 F1440.0
G1 X2.830 Y-2.139 Z26.800 U0.000 V0.000 E0.02993 F1440.0
G1 X3.630 Y-2.139 Z26.800 U0.000 V0.000 E0.02993 F1440.0
G1 X4.430 Y-2.139 Z26.800 U0.000 V0.000 E0.02993 F1440.0
G1 X5.230 Y-2.139 Z26.800 U0.000 V0.000 E0.02993 F1440.0
G1 X6.030 Y-2.139 Z26.800 U0.000 V0.000 E0.02993 F1440.0
G1 X6.830 Y-2.139 Z26.800 U0.000 V0.000 E0.02993 F1440.0
G1 X7.630 Y-2.139 Z26.800 U0.000 V0.000 E0.02993 F1440.0
G1 X8.430 Y-2.139 Z26.800 U0.000 V0.000 E0.02993 F1440.0
G1 E-0.80000 F1500.0
G0 X8.430 Y-2.139 Z28.800 U0.000 V0.000 F3600.0
G0 X9.050 Y-1.689 Z28.800 U0.000 V0.000 F3600.0
G0 X9.050 Y-1.689 Z26.800 U0.000 V0.000 F3600.0
G1 E0.80000 F1200.0
G1 X8.250 Y-1.689 Z26.800 U0.000 V0.000 E0.02993 F1440.0
G1 X7.450 Y-1.689 Z26.800 U0.000 V0.000 E0.02993 F1440.0
G1 X6.650 Y-1.689 Z26.800 U0.000 V0.000 E0.02993 F1440.0
G1 X5.850 Y-1.689 Z26.800 U0.000 V0.000 E0.02993 F1440.0
G1 X5.050 Y-1.689 Z26.800 U0.000 V0.000 E0.02993 F1440.0
G1 X4.250 Y-1.689 Z26.800 U0.000 V0.000 E0.02993 F1440.0
G1 X3.450 Y-1.689 Z26.800 U0.000 V0.000 E0.02993 F1440.0
G1 X2.650 Y-1.689 Z26.800 U0.000 V0.000 E0.02993 F1440.0
G1 X1.850 Y-1.689 Z26.800 U0.000 V0.000 E0.02993 F1440.0
G1 X1.050 Y-1.689 Z26.800 U0.000 V0.000 E0.02993 F1440.0
G1 E-0.80000 F1500.0
G0 X1.050 Y-1.689 Z28.800 U0.000 V0.000 F3600.0
G0 X0.912 Y-1.239 Z28.800 U0.000 V0.000 F3600.0
G0 X0.912 Y-1.239 Z26.800 U0.000 V0.000 F3600.0
G1 E0.80000 F1200.0
G1 X1.712 Y-1.239 Z26.800 U0.000 V0.000 E0.02993 F1440.0
G1 X2.512 Y-1.239 Z26.800 U0.000 V0.000 E0.02993 F1440.0
G1 X3.312 Y-1.239 Z26.800 U0.000 V0.000 E0.02993 F1440.0
G1 X4.112 Y-1.239 Z26.800 U0.000 V0.000 E0.02993 F1440.0
G1 X4.912 Y-1.239 Z26.800 U0.000 V0.000 E0.02993 F1440.0
G1 X5.712 Y-1.239 Z26.800 U0.000 V0.000 E0.02993 F1440.0
G1 X6.512 Y-1.239 Z26.800 U0.000 V0.000 E0.02993 F1440.0
G1 X7.312 Y-1.239 Z26.800 U0.000 V0.000 E0.02993 F1440.0
G1 X8.112 Y-1.239 Z26.800 U0.000 V0.000 E0.02993 F1440.0
G1 X8.912 Y-1.239 Z26.800 U0.000 V0.000 E0.02993 F1440.0
G1 E-0.80000 F1500.0
G0 X8.912 Y-1.239 Z28.800 U0.000 V0.000 F3600.0
G0 X8.825 Y-0.789 Z28.800 U0.000 V0.000 F3600.0
G0 X8.825 Y-0.789 Z26.800 U0.000 V0.000 F3600.0
G1 E0.80000 F1200.0
G1 X8.025 Y-0.789 Z26.800 U0.000 V0.000 E0.02993 F1440.0
G1 X7.225 Y-0.789 Z26.800 U0.000 V0.000 E0.02993 F1440.0
G1 X6.425 Y-0.789 Z26.800 U0.000 V0.000 E0.02993 F1440.0
G1 X5.625 Y-0.789 Z26.800 U0.000 V0.000 E0.02993 F1440.0
G1 X4.825 Y-0.789 Z26.800 U0.000 V0.000 E0.02993 F1440.0
G1 X4.025 Y-0.789 Z26.800 U0.000 V0.000 E0.02993 F1440.0
G1 X3.225 Y-0.789 Z26.800 U0.000 V0.000 E0.02993 F1440.0
G1 X2.425 Y-0.789 Z26.800 U0.000 V0.000 E0.02993 F1440.0
G1 X1.625 Y-0.789 Z26.800 U0.000 V0.000 E0.02993 F1440.0
G1 X0.825 Y-0.789 Z26.800 U0.000 V0.000 E0.02993 F1440.0
G1 E-0.80000 F1500.0
G0 X0.825 Y-0.789 Z28.800 U0.000 V0.000 F3600.0
G0 X0.804 Y-0.339 Z28.800 U0.000 V0.000 F3600.0
G0 X0.804 Y-0.339 Z26.800 U0.000 V0.000 F3600.0
G1 E0.80000 F1200.0
G1 X1.604 Y-0.339 Z26.800 U0.000 V0.000 E0.02993 F1440.0
G1 X2.404 Y-0.339 Z26.800 U0.000 V0.000 E0.02993 F1440.0
G1 X3.204 Y-0.339 Z26.800 U0.000 V0.000 E0.02993 F1440.0
G1 X4.004 Y-0.339 Z26.800 U0.000 V0.000 E0.02993 F1440.0
G1 X4.804 Y-0.339 Z26.800 U0.000 V0.000 E0.02993 F1440.0
G1 X5.604 Y-0.339 Z26.800 U0.000 V0.000 E0.02993 F1440.0
G1 X6.404 Y-0.339 Z26.800 U0.000 V0.000 E0.02993 F1440.0
G1 X7.204 Y-0.339 Z26.800 U0.000 V0.000 E0.02993 F1440.0
G1 X8.004 Y-0.339 Z26.800 U0.000 V0.000 E0.02993 F1440.0
G1 X8.804 Y-0.339 Z26.800 U0.000 V0.000 E0.02993 F1440.0
G1 E-0.80000 F1500.0
G0 X8.804 Y-0.339 Z28.800 U0.000 V0.000 F3600.0
G0 X8.805 Y0.111 Z28.800 U0.000 V0.000 F3600.0
G0 X8.805 Y0.111 Z26.800 U0.000 V0.000 F3600.0
G1 E0.80000 F1200.0
G1 X8.005 Y0.111 Z26.800 U0.000 V0.000 E0.02993 F1440.0
G1 X7.205 Y0.111 Z26.800 U0.000 V0.000 E0.02993 F1440.0
G1 X6.405 Y0.111 Z26.800 U0.000 V0.000 E0.02993 F1440.0
G1 X5.605 Y0.111 Z26.800 U0.000 V0.000 E0.02993 F1440.0
G1 X4.805 Y0.111 Z26.800 U0.000 V0.000 E0.02993 F1440.0
G1 X4.005 Y0.111 Z26.800 U0.000 V0.000 E0.02993 F1440.0
G1 X3.205 Y0.111 Z26.800 U0.000 V0.000 E0.02993 F1440.0
G1 X2.405 Y0.111 Z26.800 U0.000 V0.000 E0.02993 F1440.0
G1 X1.605 Y0.111 Z26.800 U0.000 V0.000 E0.02993 F1440.0
G1 X0.805 Y0.111 Z26.800 U0.000 V0.000 E0.02993 F1440.0
G1 E-0.80000 F1500.0
G0 X0.805 Y0.111 Z28.800 U0.000 V0.000 F3600.0
G0 X0.892 Y0.561 Z28.800 U0.000 V0.000 F3600.0
G0 X0.892 Y0.561 Z26.800 U0.000 V0.000 F3600.0
G1 E0.80000 F1200.0
G1 X1.692 Y0.561 Z26.800 U0.000 V0.000 E0.02993 F1440.0
G1 X2.492 Y0.561 Z26.800 U0.000 V0.000 E0.02993 F1440.0
G1 X3.292 Y0.561 Z26.800 U0.000 V0.000 E0.02993 F1440.0
G1 X4.092 Y0.561 Z26.800 U0.000 V0.000 E0.02993 F1440.0
G1 X4.892 Y0.561 Z26.800 U0.000 V0.000 E0.02993 F1440.0
G1 X5.692 Y0.561 Z26.800 U0.000 V0.000 E0.02993 F1440.0
G1 X6.492 Y0.561 Z26.800 U0.000 V0.000 E0.02993 F1440.0
G1 X7.292 Y0.561 Z26.800 U0.000 V0.000 E0.02993 F1440.0
G1 X8.092 Y0.561 Z26.800 U0.000 V0.000 E0.02993 F1440.0
G1 X8.892 Y0.561 Z26.800 U0.000 V0.000 E0.02993 F1440.0
G1 E-0.80000 F1500.0
G0 X8.892 Y0.561 Z28.800 U0.000 V0.000 F3600.0
G0 X9.007 Y1.011 Z28.800 U0.000 V0.000 F3600.0
G0 X9.007 Y1.011 Z26.800 U0.000 V0.000 F3600.0
G1 E0.80000 F1200.0
G1 X8.207 Y1.011 Z26.800 U0.000 V0.000 E0.02993 F1440.0
G1 X7.407 Y1.011 Z26.800 U0.000 V0.000 E0.02993 F1440.0
G1 X6.607 Y1.011 Z26.800 U0.000 V0.000 E0.02993 F1440.0
G1 X5.807 Y1.011 Z26.800 U0.000 V0.000 E0.02993 F1440.0
G1 X5.007 Y1.011 Z26.800 U0.000 V0.000 E0.02993 F1440.0
G1 X4.207 Y1.011 Z26.800 U0.000 V0.000 E0.02993 F1440.0
G1 X3.407 Y1.011 Z26.800 U0.000 V0.000 E0.02993 F1440.0
G1 X2.607 Y1.011 Z26.800 U0.000 V0.000 E0.02993 F1440.0
G1 X1.807 Y1.011 Z26.800 U0.000 V0.000 E0.02993 F1440.0
G1 X1.007 Y1.011 Z26.800 U0.000 V0.000 E0.02993 F1440.0
G1 E-0.80000 F1500.0
G0 X1.007 Y1.011 Z28.800 U0.000 V0.000 F3600.0
G0 X1.188 Y1.461 Z28.800 U0.000 V0.000 F3600.0
G0 X1.188 Y1.461 Z26.800 U0.000 V0.000 F3600.0
G1 E0.80000 F1200.0
G1 X1.988 Y1.461 Z26.800 U0.000 V0.000 E0.02993 F1440.0
G1 X2.788 Y1.461 Z26.800 U0.000 V0.000 E0.02993 F1440.0
G1 X3.588 Y1.461 Z26.800 U0.000 V0.000 E0.02993 F1440.0
G1 X4.388 Y1.461 Z26.800 U0.000 V0.000 E0.02993 F1440.0
G1 X5.188 Y1.461 Z26.800 U0.000 V0.000 E0.02993 F1440.0
G1 X5.988 Y1.461 Z26.800 U0.000 V0.000 E0.02993 F1440.0
G1 X6.788 Y1.461 Z26.800 U0.000 V0.000 E0.02993 F1440.0
G1 X7.588 Y1.461 Z26.800 U0.000 V0.000 E0.02993 F1440.0
G1 X8.388 Y1.461 Z26.800 U0.000 V0.000 E0.02993 F1440.0
G1 E-0.80000 F1500.0
G0 X8.388 Y1.461 Z28.800 U0.000 V0.000 F3600.0
G0 X8.644 Y1.911 Z28.800 U0.000 V0.000 F3600.0
G0 X8.644 Y1.911 Z26.800 U0.000 V0.000 F3600.0
G1 E0.80000 F1200.0
G1 X7.844 Y1.911 Z26.800 U0.000 V0.000 E0.02993 F1440.0
G1 X7.044 Y1.911 Z26.800 U0.000 V0.000 E0.02993 F1440.0
G1 X6.244 Y1.911 Z26.800 U0.000 V0.000 E0.02993 F1440.0
G1 X5.444 Y1.911 Z26.800 U0.000 V0.000 E0.02993 F1440.0
G1 X4.644 Y1.911 Z26.800 U0.000 V0.000 E0.02993 F1440.0
G1 X3.844 Y1.911 Z26.800 U0.000 V0.000 E0.02993 F1440.0
G1 X3.044 Y1.911 Z26.800 U0.000 V0.000 E0.02993 F1440.0
G1 X2.244 Y1.911 Z26.800 U0.000 V0.000 E0.02993 F1440.0
G1 X1.444 Y1.911 Z26.800 U0.000 V0.000 E0.02993 F1440.0
G1 E-0.80000 F1500.0
G0 X1.444 Y1.911 Z28.800 U0.000 V0.000 F3600.0
G0 X1.767 Y2.361 Z28.800 U0.000 V0.000 F3600.0
G0 X1.767 Y2.361 Z26.800 U0.000 V0.000 F3600.0
G1 E0.80000 F1200.0
G1 X2.567 Y2.361 Z26.800 U0.000 V0.000 E0.02993 F1440.0
G1 X3.367 Y2.361 Z26.800 U0.000 V0.000 E0.02993 F1440.0
G1 X4.167 Y2.361 Z26.800 U0.000 V0.000 E0.02993 F1440.0
G1 X4.967 Y2.361 Z26.800 U0.000 V0.000 E0.02993 F1440.0
G1 X5.767 Y2.361 Z26.800 U0.000 V0.000 E0.02993 F1440.0
G1 X6.567 Y2.361 Z26.800 U0.000 V0.000 E0.02993 F1440.0
G1 X7.367 Y2.361 Z26.800 U0.000 V0.000 E0.02993 F1440.0
G1 X8.167 Y2.361 Z26.800 U0.000 V0.000 E0.02993 F1440.0
G1 E-0.80000 F1500.0
G0 X8.167 Y2.361 Z28.800 U0.000 V0.000 F3600.0
G0 X7.796 Y2.811 Z28.800 U0.000 V0.000 F3600.0
G0 X7.796 Y2.811 Z26.800 U0.000 V0.000 F3600.0
G1 E0.80000 F1200.0
G1 X6.996 Y2.811 Z26.800 U0.000 V0.000 E0.02993 F1440.0
G1 X6.196 Y2.811 Z26.800 U0.000 V0.000 E0.02993 F1440.0
G1 X5.396 Y2.811 Z26.800 U0.000 V0.000 E0.02993 F1440.0
G1 X4.596 Y2.811 Z26.800 U0.000 V0.000 E0.02993 F1440.0
G1 X3.796 Y2.811 Z26.800 U0.000 V0.000 E0.02993 F1440.0
G1 X2.996 Y2.811 Z26.800 U0.000 V0.000 E0.02993 F1440.0
G1 X2.196 Y2.811 Z26.800 U0.000 V0.000 E0.02993 F1440.0
G1 E-0.80000 F1500.0
G0 X2.196 Y2.811 Z28.800 U0.000 V0.000 F3600.0
G0 X2.824 Y3.261 Z28.800 U0.000 V0.000 F3600.0
G0 X2.824 Y3.261 Z26.800 U0.000 V0.000 F3600.0
G1 E0.80000 F1200.0
G1 X3.624 Y3.261 Z26.800 U0.000 V0.000 E0.02993 F1440.0
G1 X4.424 Y3.261 Z26.800 U0.000 V0.000 E0.02993 F1440.0
G1 X5.224 Y3.261 Z26.800 U0.000 V0.000 E0.02993 F1440.0
G1 X6.024 Y3.261 Z26.800 U0.000 V0.000 E0.02993 F1440.0
G1 X6.824 Y3.261 Z26.800 U0.000 V0.000 E0.02993 F1440.0
G1 E-0.80000 F1500.0
G0 X6.824 Y3.261 Z28.800 U0.000 V0.000 F3600.0
G0 X5.623 Y3.711 Z28.800 U0.000 V0.000 F3600.0
G0 X5.623 Y3.711 Z26.800 U0.000 V0.000 F3600.0
G1 E0.80000 F1200.0
G1 X4.823 Y3.711 Z26.800 U0.000 V0.000 E0.02993 F1440.0
G1 X4.023 Y3.711 Z26.800 U0.000 V0.000 E0.02993 F1440.0
G1 E-0.80000 F1500.0
G0 X4.023 Y3.711 Z28.800 U0.000 V0.000 F3600.0
G0 X9.303 Y-0.286 Z29.000 U0.000 V0.000 F3600.0
G0 X9.303 Y-0.286 Z27.000 U0.000 V0.000 F3600.0
G1 E0.80000 F1200.0
G1 X9.230 Y0.511 Z27.000 U0.000 V0.000 E0.02993 F1440.0
G1 X9.014 Y1.281 Z27.000 U0.000 V0.000 E0.02992 F1440.0
G1 X8.662 Y1.999 Z27.000 U0.000 V0.000 E0.02992 F1440.0
G1 X8.187 Y2.642 Z27.000 U0.000 V0.000 E0.02991 F1440.0
G1 X7.604 Y3.188 Z27.000 U0.000 V0.000 E0.02991 F1440.0
G1 X6.931 Y3.620 Z27.000 U0.000 V0.000 E0.02990 F1440.0
G1 X6.192 Y3.923 Z27.000 U0.000 V0.000 E0.02990 F1440.0
G1 X5.410 Y4.088 Z27.000 U0.000 V0.000 E0.02989 F1440.0
G1 X4.612 Y4.109 Z27.000 U0.000 V0.000 E0.02989 F1440.0
G1 X3.823 Y3.985 Z27.000 U0.000 V0.000 E0.02988 F1440.0
G1 X3.069 Y3.721 Z27.000 U0.000 V0.000 E0.02988 F1440.0
G1 X2.376 Y3.325 Z27.000 U0.000 V0.000 E0.02988 F1440.0
G1 X1.765 Y2.810 Z27.000 U0.000 V0.000 E0.02987 F1440.0
G1 X1.258 Y2.194 Z27.000 U0.000 V0.000 E0.02987 F1440.0
G1 X0.870 Y1.497 Z27.000 U0.000 V0.000 E0.02986 F1440.0
G1 X0.615 Y0.740 Z27.000 U0.000 V0.000 E0.02986 F1440.0
G1 X0.500 Y-0.049 Z27.000 U0.000 V0.000 E0.02986 F1440.0
G1 X0.530 Y-0.847 Z27.000 U0.000 V0.000 E0.02985 F1440.0
G1 X0.704 Y-1.625 Z27.000 U0.000 V0.000 E0.02985 F1440.0
G1 X1.015 Y-2.360 Z27.000 U0.000 V0.000 E0.02985 F1440.0
G1 X1.454 Y-3.026 Z27.000 U0.000 V0.000 E0.02984 F1440.0
G1 X2.006 Y-3.602 Z27.000 U0.000 V0.000 E0.02984 F1440.0
G1 X2.653 Y-4.068 Z27.000 U0.000 V0.000 E0.02984 F1440.0
G1 X3.373 Y-4.410 Z27.000 U0.000 V0.000 E0.02984 F1440.0
G1 X4.143 Y-4.617 Z27.000 U0.000 V0.000 E0.02983 F1440.0
G1 X4.938 Y-4.681 Z27.000 U0.000 V0.000 E0.02983 F1440.0
G1 X5.731 Y-4.600 Z27.000 U0.000 V0.000 E0.02983 F1440.0
G1 X6.496 Y-4.377 Z27.000 U0.000 V0.000 E0.02983 F1440.0
G1 X7.209 Y-4.020 Z27.000 U0.000 V0.000 E0.02983 F1440.0
G1 X7.845 Y-3.540 Z27.000 U0.000 V0.000 E0.02982 F1440.0
G1 X8.384 Y-2.953 Z27.000 U0.000 V0.000 E0.02982 F1440.0
G1 X8.809 Y-2.278 Z27.000 U0.000 V0.000 E0.02982 F1440.0
G1 X9.104 Y-1.538 Z27.000 U0.000 V0.000 E0.02982 F1440.0
G1 X9.261 Y-0.757 Z27.000 U0.000 V0.000 E0.02982 F1440.0
G1 X9.303 Y-0.286 Z27.000 U0.000 V0.000 E0.01770 F1440.0
G1 E-0.80000 F1500.0
G0 X9.303 Y-0.286 Z29.000 U0.000 V0.000 F3600.0
G0 X6.975 Y-4.241 Z29.000 U0.000 V0.000 F3600.0
G0 X6.975 Y-4.241 Z27.000 U0.000 V0.000 F3600.0
G1 E0.80000 F1200.0
G1 X6.175 Y-4.241 Z27.000 U0.000 V0.000 E0.02993 F1440.0
G1 X5.375 Y-4.241 Z27.000 U0.000 V0.000 E0.02993 F1440.0
G1 X4.575 Y-4.241 Z27.000 U0.000 V0.000 E0.02993 F1440.0
G1 X3.775 Y-4.241 Z27.000 U0.000 V0.000 E0.02993 F1440.0
G1 X2.975 Y-4.241 Z27.000 U0.000 V0.000 E0.02993 F1440.0
G1 E-0.80000 F1500.0
G0 X2.975 Y-4.241 Z29.000 U0.000 V0.000 F3600.0
G0 X2.244 Y-3.791 Z29.000 U0.000 V0.000 F3600.0
G0 X2.244 Y-3.791 Z27.000 U0.000 V0.000 F3600.0
G1 E0.80000 F1200.0
G1 X3.044 Y-3.791 Z27.000 U0.000 V0.000 E0.02993 F1440.0
G1 X3.844 Y-3.791 Z27.000 U0.000 V0.000 E0.02993 F1440.0
G1 X4.644 Y-3.791 Z27.000 U0.000 V0.000 E0.02993 F1440.0
G1 X5.444 Y-3.791 Z27.000 U0.000 V0.000 E0.02993 F1440.0
G1 X6.244 Y-3.791 Z27.000 U0.000 V0.000 E0.02993 F1440.0
G1 X7.044 Y-3.791 Z27.000 U0.000 V0.000 E0.02993 F1440.0
G1 X7.844 Y-3.791 Z27.000 U0.000 V0.000 E0.02993 F1440.0
G1 E-0.80000 F1500.0
G0 X7.844 Y-3.791 Z29.000 U0.000 V0.000 F3600.0
G0 X8.130 Y-3.341 Z29.000 U0.000 V0.000 F3600.0
G0 X8.130 Y-3.341 Z27.000 U0.000 V0.000 F3600.0
G1 E0.80000 F1200.0
G1 X7.330 Y-3.341 Z27.000 U0.000 V0.000 E0.02993 F1440.0
G1 X6.530 Y-3.341 Z27.000 U0.000 V0.000 E0.02993 F1440.0
G1 X5.730 Y-3.341 Z27.000 U0.000 V0.000 E0.02993 F1440.0
G1 X4.930 Y-3.341 Z27.000 U0.000 V0.000 E0.02993 F1440.0
G1 X4.130 Y-3.341 Z27.000 U0.000 V0.000 E0.02993 F1440.0
G1 X3.330 Y-3.341 Z27.000 U0.000 V0.000 E0.02993 F1440.0
G1 X2.530 Y-3.341 Z27.000 U0.000 V0.000 E0.02993 F1440.0
G1 X1.730 Y-3.341 Z27.000 U0.000 V0.000 E0.02993 F1440.0
G1 E-0.80000 F1500.0
G0 X1.730 Y-3.341 Z29.000 U0.000 V0.000 F3600.0
G0 X1.337 Y-2.891 Z29.000 U0.000 V0.000 F3600.0
G0 X1.337 Y-2.891 Z27.000 U0.000 V0.000 F3600.0
G1 E0.80000 F1200.0
G1 X2.137 Y-2.891 Z27.000 U0.000 V0.000 E0.02993 F1440.0
G1 X2.937 Y-2.891 Z27.000 U0.000 V0.000 E0.02993 F1440.0
G1 X3.737 Y-2.891 Z27.000 U0.000 V0.000 E0.02993 F1440.0
G1 X4.537 Y-2.891 Z27.000 U0.000 V0.000 E0.02993 F1440.0
G1 X5.337 Y-2.891 Z27.000 U0.000 V0.000 E0.02993 F1440.0
G1 X6.137 Y-2.891 Z27.000 U0.000 V0.000 E0.02993 F1440.0
G1 X6.937 Y-2.891 Z27.000 U0.000 V0.000 E0.02993 F1440.0
G1 X7.737 Y-2.891 Z27.000 U0.000 V0.000 E0.02993 F1440.0
G1 X8.537 Y-2.891 Z27.000 U0.000 V0.000 E0.02993 F1440.0
G1 E-0.80000 F1500.0
G0 X8.537 Y-2.891 Z29.000 U0.000 V0.000 F3600.0
G0 X9.064 Y-2.441 Z29.000 U0.000 V0.000 F3600.0
G0 X9.064 Y-2.441 Z27.000 U0.000 V0.000 F3600.0
G1 E0.80000 F1200.0
G1 X8.264 Y-2.441 Z27.000 U0.000 V0.000 E0.02993 F1440.0
G1 X7.464 Y-2.441 Z27.000 U0.000 V0.000 E0.02993 F1440.0
G1 X6.664 Y-2.441 Z27.000 U0.000 V0.000 E0.02993 F1440.0
G1 X5.864 Y-2.441 Z27.000 U0.000 V0.000 E0.02993 F1440.0
G1 X5.064 Y-2.441 Z27.000 U0.000 V0.000 E0.02993 F1440.0
G1 X4.264 Y-2.441 Z27.000 U0.000 V0.000 E0.02993 F1440.0
G1 X3.464 Y-2.441 Z27.000 U0.000 V0.000 E0.02993 F1440.0
G1 X2.664 Y-2.441 Z27.000 U0.000 V0.000 E0.02993 F1440.0
G1 X1.864 Y-2.441 Z27.000 U0.000 V0.000 E0.02993 F1440.0
G1 X1.064 Y-2.441 Z27.000 U0.000 V0.000 E0.02993 F1440.0
G1 E-0.80000 F1500.0
G0 X1.064 Y-2.441 Z29.000 U0.000 V0.000 F3600.0
G0 X0.841 Y-1.991 Z29.000 U0.000 V0.000 F3600.0
G0 X0.841 Y-1.991 Z27.000 U0.000 V0.000 F3600.0
G1 E0.80000 F1200.0
G1 X1.641 Y-1.991 Z27.000 U0.000 V0.000 E0.02993 F1440.0
G1 X2.441 Y-1.991 Z27.000 U0.000 V0.000 E0.02993 F1440.0
G1 X3.241 Y-1.991 Z27.000 U0.000 V0.000 E0.02993 F1440.0
G1 X4.041 Y-1.991 Z27.000 U0.000 V0.000 E0.02993 F1440.0
G1 X4.841 Y-1.991 Z27.000 U0.000 V0.000 E0.02993 F1440.0
G1 X5.641 Y-1.991 Z27.000 U0.000 V0.000 E0.02993 F1440.0
G1 X6.441 Y-1.991 Z27.000 U0.000 V0.000 E0.02993 F1440.0
G1 X7.241 Y-1.991 Z27.000 U0.000 V0.000 E0.02993 F1440.0
G1 X8.041 Y-1.991 Z27.000 U0.000 V0.000 E0.02993 F1440.0
G1 X8.841 Y-1.991 Z27.000 U0.000 V0.000 E0.02993 F1440.0
G1 E-0.80000 F1500.0
G0 X8.841 Y-1.991 Z29.000 U0.000 V0.000 F3600.0
G0 X9.473 Y-1.541 Z29.000 U0.000 V0.000 F3600.0
G0 X9.473 Y-1.541 Z27.000 U0.000 V0.000 F3600.0
G1 E0.80000 F1200.0
G1 X8.673 Y-1.541 Z27.000 U0.000 V0.000 E0.02993 F1440.0
G1 X7.873 Y-1.541 Z27.000 U0.000 V0.000 E0.02993 F1440.0
G1 X7.073 Y-1.541 Z27.000 U0.000 V0.000 E0.02993 F1440.0
G1 X6.273 Y-1.541 Z27.000 U0.000 V0.000 E0.02993 F1440.0
G1 X5.473 Y-1.541 Z27.000 U0.000 V0.000 E0.02993 F1440.0
G1 X4.673 Y-1.541 Z27.000 U0.000 V0.000 E0.02993 F1440.0
G1 X3.873 Y-1.541 Z27.000 U0.000 V0.000 E0.02993 F1440.0
G1 X3.073 Y-1.541 Z27.000 U0.000 V0.000 E0.02993 F1440.0
G1 X2.273 Y-1.541 Z27.000 U0.000 V0.000 E0.02993 F1440.0
G1 X1.473 Y-1.541 Z27.000 U0.000 V0.000 E0.02993 F1440.0
G1 X0.673 Y-1.541 Z27.000 U0.000 V0.000 E0.02993 F1440.0
G1 E-0.80000 F1500.0
G0 X0.673 Y-1.541 Z29.000 U0.000 V0.000 F3600.0
G0 X0.575 Y-1.091 Z29.000 U0.000 V0.000 F3600.0
G0 X0.575 Y-1.091 Z27.000 U0.000 V0.000 F3600.0
G1 E0.80000 F1200.0
G1 X1.375 Y-1.091 Z27.000 U0.000 V0.000 E0.02993 F1440.0
G1 X2.175 Y-1.091 Z27.000 U0.000 V0.000 E0.02993 F1440.0
G1 X2.975 Y-1.091 Z27.000 U0.000 V0.000 E0.02993 F1440.0
G1 X3.775 Y-1.091 Z27.000 U0.000 V0.000 E0.02993 F1440.0
G1 X4.575 Y-1.091 Z27.000 U0.000 V0.000 E0.02993 F1440.0
G1 X5.375 Y-1.091 Z27.000 U0.000 V0.000 E0.02993 F1440.0
G1 X6.175 Y-1.091 Z27.000 U0.000 V0.000 E0.02993 F1440.0
G1 X6.975 Y-1.091 Z27.000 U0.000 V0.000 E0.02993 F1440.0
G1 X7.775 Y-1.091 Z27.000 U0.000 V0.000 E0.02993 F1440.0
G1 X8.575 Y-1.091 Z27.000 U0.000 V0.000 E0.02993 F1440.0
G1 X9.375 Y-1.091 Z27.000 U0.000 V0.000 E0.02993 F1440.0
G1 E-0.80000 F1500.0
G0 X9.375 Y-1.091 Z29.000 U0.000 V0.000 F3600.0
G0 X9.300 Y-0.641 Z29.000 U0.000 V0.000 F3600.0
G0 X9.300 Y-0.641 Z27.000 U0.000 V0.000 F3600.0
G1 E0.80000 F1200.0
G1 X8.500 Y-0.641 Z27.000 U0.000 V0.000 E0.02993 F1440.0
G1 X7.700 Y-0.641 Z27.000 U0.000 V0.000 E0.02993 F1440.0
G1 X6.900 Y-0.641 Z27.000 U0.000 V0.000 E0.02993 F1440.0
G1 X6.100 Y-0.641 Z27.000 U0.000 V0.000 E0.02993 F1440.0
G1 X5.300 Y-0.641 Z27.000 U0.000 V0.000 E0.02993 F1440.0
G1 X4.500 Y-0.641 Z27.000 U0.000 V0.000 E0.02993 F1440.0
G1 X3.700 Y-0.641 Z27.000 U0.000 V0.000 E0.02993 F1440.0
G1 X2.900 Y-0.641 Z27.000 U0.000 V0.000 E0.02993 F1440.0
G1 X2.100 Y-0.641 Z27.000 U0.000 V0.000 E0.02993 F1440.0
G1 X1.300 Y-0.641 Z27.000 U0.000 V0.000 E0.02993 F1440.0
G1 X0.500 Y-0.641 Z27.000 U0.000 V0.000 E0.02993 F1440.0
G1 E-0.80000 F1500.0
G0 X0.500 Y-0.641 Z29.000 U0.000 V0.000 F3600.0
G0 X0.500 Y-0.191 Z29.000 U0.000 V0.000 F3600.0
G0 X0.500 Y-0.191 Z27.000 U0.000 V0.000 F3600.0
G1 E0.80000 F1200.0
G1 X1.300 Y-0.191 Z27.000 U0.000 V0.000 E0.02993 F1440.0
G1 X2.100 Y-0.191 Z27.000 U0.000 V0.000 E0.02993 F1440.0
G1 X2.900 Y-0.191 Z27.000 U0.000 V0.000 E0.02993 F1440.0
G1 X3.700 Y-0.191 Z27.000 U0.000 V0.000 E0.02993 F1440.0
G1 X4.500 Y-0.191 Z27.000 U0.000 V0.000 E0.02993 F1440.0
G1 X5.300 Y-0.191 Z27.000 U0.000 V0.000 E0.02993 F1440.0
G1 X6.100 Y-0.191 Z27.000 U0.000 V0.000 E0.02993 F1440.0
G1 X6.900 Y-0.191 Z27.000 U0.000 V0.000 E0.02993 F1440.0
G1 X7.700 Y-0.191 Z27.000 U0.000 V0.000 E0.02993 F1440.0
G1 X8.500 Y-0.191 Z27.000 U0.000 V0.000 E0.02993 F1440.0
G1 X9.300 Y-0.191 Z27.000 U0.000 V0.000 E0.02993 F1440.0
G1 E-0.80000 F1500.0
G0 X9.300 Y-0.191 Z29.000 U0.000 V0.000 F3600.0
G0 X9.327 Y0.259 Z29.000 U0.000 V0.000 F3600.0
G0 X9.327 Y0.259 Z27.000 U0.000 V0.000 F3600.0
G1 E0.80000 F1200.0
G1 X8.527 Y0.259 Z27.000 U0.000 V0.000 E0.02993 F1440.0
G1 X7.727 Y0.259 Z27.000 U0.000 V0.000 E0.02993 F1440.0
G1 X6.927 Y0.259 Z27.000 U0.000 V0.000 E0.02993 F1440.0
G1 X6.127 Y0.259 Z27.000 U0.000 V0.000 E0.02993 F1440.0
G1 X5.327 Y0.259 Z27.000 U0.000 V0.000 E0.02993 F1440.0
G1 X4.527 Y0.259 Z27.000 U0.000 V0.000 E0.02993 F1440.0
G1 X3.727 Y0.259 Z27.000 U0.000 V0.000 E0.02993 F1440.0
G1 X2.927 Y0.259 Z27.000 U0.000 V0.000 E0.02993 F1440.0
G1 X2.127 Y0.259 Z27.000 U0.000 V0.000 E0.02993 F1440.0
G1 X1.327 Y0.259 Z27.000 U0.000 V0.000 E0.02993 F1440.0
G1 X0.527 Y0.259 Z27.000 U0.000 V0.000 E0.02993 F1440.0
G1 E-0.80000 F1500.0
G0 X0.527 Y0.259 Z29.000 U0.000 V0.000 F3600.0
G0 X0.609 Y0.709 Z29.000 U0.000 V0.000 F3600.0
G0 X0.609 Y0.709 Z27.000 U0.000 V0.000 F3600.0
G1 E0.80000 F1200.0
G1 X1.409 Y0.709 Z27.000 U0.000 V0.000 E0.02993 F1440.0
G1 X2.209 Y0.709 Z27.000 U0.000 V0.000 E0.02993 F1440.0
G1 X3.009 Y0.709 Z27.000 U0.000 V0.000 E0.02993 F1440.0
G1 X3.809 Y0.709 Z27.000 U0.000 V0.000 E0.02993 F1440.0
G1 X4.609 Y0.709 Z27.000 U0.000 V0.000 E0.02993 F1440.0
G1 X5.409 Y0.709 Z27.000 U0.000 V0.000 E0.02993 F1440.0
G1 X6.209 Y0.709 Z27.000 U0.000 V0.000 E0.02993 F1440.0
G1 X7.009 Y0.709 Z27.000 U0.000 V0.000 E0.02993 F1440.0
G1 X7.809 Y0.709 Z27.000 U0.000 V0.000 E0.02993 F1440.0
G1 X8.609 Y0.709 Z27.000 U0.000 V0.000 E0.02993 F1440.0
G1 X9.409 Y0.709 Z27.000 U0.000 V0.000 E0.02993 F1440.0
G1 E-0.80000 F1500.0
G0 X9.409 Y0.709 Z29.000 U0.000 V0.000 F3600.0
G0 X8.743 Y1.159 Z29.000 U0.000 V0.000 F3600.0
G0 X8.743 Y1.159 Z27.000 U0.000 V0.000 F3600.0
G1 E0.80000 F1200.0
G1 X7.943 Y1.159 Z27.000 U0.000 V0.000 E0.02993 F1440.0
G1 X7.143 Y1.159 Z27.000 U0.000 V0.000 E0.02993 F1440.0
G1 X6.343 Y1.159 Z27.000 U0.000 V0.000 E0.02993 F1440.0
G1 X5.543 Y1.159 Z27.000 U0.000 V0.000 E0.02993 F1440.0
G1 X4.743 Y1.159 Z27.000 U0.000 V0.000 E0.02993 F1440.0
G1 X3.943 Y1.159 Z27.000 U0.000 V0.000 E0.02993 F1440.0
G1 X3.143 Y1.159 Z27.000 U0.000 V0.000 E0.02993 F1440.0
G1 X2.343 Y1.159 Z27.000 U0.000 V0.000 E0.02993 F1440.0
G1 X1.543 Y1.159 Z27.000 U0.000 V0.000 E0.02993 F1440.0
G1 X0.743 Y1.159 Z27.000 U0.000 V0.000 E0.02993 F1440.0
G1 E-0.80000 F1500.0
G0 X0.743 Y1.159 Z29.000 U0.000 V0.000 F3600.0
G0 X0.912 Y1.609 Z29.000 U0.000 V0.000 F3600.0
G0 X0.912 Y1.609 Z27.000 U0.000 V0.000 F3600.0
G1 E0.80000 F1200.0
G1 X1.712 Y1.609 Z27.000 U0.000 V0.000 E0.02993 F1440.0
G1 X2.512 Y1.609 Z27.000 U0.000 V0.000 E0.02993 F1440.0
G1 X3.312 Y1.609 Z27.000 U0.000 V0.000 E0.02993 F1440.0
G1 X4.112 Y1.609 Z27.000 U0.000 V0.000 E0.02993 F1440.0
G1 X4.912 Y1.609 Z27.000 U0.000 V0.000 E0.02993 F1440.0
G1 X5.712 Y1.609 Z27.000 U0.000 V0.000 E0.02993 F1440.0
G1 X6.512 Y1.609 Z27.000 U0.000 V0.000 E0.02993 F1440.0
G1 X7.312 Y1.609 Z27.000 U0.000 V0.000 E0.02993 F1440.0
G1 X8.112 Y1.609 Z27.000 U0.000 V0.000 E0.02993 F1440.0
G1 X8.912 Y1.609 Z27.000 U0.000 V0.000 E0.02993 F1440.0
G1 E-0.80000 F1500.0
G0 X8.912 Y1.609 Z29.000 U0.000 V0.000 F3600.0
G0 X8.377 Y2.059 Z29.000 U0.000 V0.000 F3600.0
G0 X8.377 Y2.059 Z27.000 U0.000 V0.000 F3600.0
G1 E0.80000 F1200.0
G1 X7.577 Y2.059 Z27.000 U0.000 V0.000 E0.02993 F1440.0
G1 X6.777 Y2.059 Z27.000 U0.000 V0.000 E0.02993 F1440.0
G1 X5.977 Y2.059 Z27.000 U0.000 V0.000 E0.02993 F1440.0
G1 X5.177 Y2.059 Z27.000 U0.000 V0.000 E0.02993 F1440.0
G1 X4.377 Y2.059 Z27.000 U0.000 V0.000 E0.02993 F1440.0
G1 X3.577 Y2.059 Z27.000 U0.000 V0.000 E0.02993 F1440.0
G1 X2.777 Y2.059 Z27.000 U0.000 V0.000 E0.02993 F1440.0
G1 X1.977 Y2.059 Z27.000 U0.000 V0.000 E0.02993 F1440.0
G1 X1.177 Y2.059 Z27.000 U0.000 V0.000 E0.02993 F1440.0
G1 E-0.80000 F1500.0
G0 X1.177 Y2.059 Z29.000 U0.000 V0.000 F3600.0
G0 X1.501 Y2.509 Z29.000 U0.000 V0.000 F3600.0
G0 X1.501 Y2.509 Z27.000 U0.000 V0.000 F3600.0
G1 E0.80000 F1200.0
G1 X2.301 Y2.509 Z27.000 U0.000 V0.000 E0.02993 F1440.0
G1 X3.101 Y2.509 Z27.000 U0.000 V0.000 E0.02993 F1440.0
G1 X3.901 Y2.509 Z27.000 U0.000 V0.000 E0.02993 F1440.0
G1 X4.701 Y2.509 Z27.000 U0.000 V0.000 E0.02993 F1440.0
G1 X5.501 Y2.509 Z27.000 U0.000 V0.000 E0.02993 F1440.0
G1 X6.301 Y2.509 Z27.000 U0.000 V0.000 E0.02993 F1440.0
G1 X7.101 Y2.509 Z27.000 U0.000 V0.000 E0.02993 F1440.0
G1 X7.901 Y2.509 Z27.000 U0.000 V0.000 E0.02993 F1440.0
G1 E-0.80000 F1500.0
G0 X7.901 Y2.509 Z29.000 U0.000 V0.000 F3600.0
G0 X7.516 Y2.959 Z29.000 U0.000 V0.000 F3600.0
G0 X7.516 Y2.959 Z27.000 U0.000 V0.000 F3600.0
G1 E0.80000 F1200.0
G1 X6.716 Y2.959 Z27.000 U0.000 V0.000 E0.02993 F1440.0
G1 X5.916 Y2.959 Z27.000 U0.000 V0.000 E0.02993 F1440.0
G1 X5.116 Y2.959 Z27.000 U0.000 V0.000 E0.02993 F1440.0
G1 X4.316 Y2.959 Z27.000 U0.000 V0.000 E0.02993 F1440.0
G1 X3.516 Y2.959 Z27.000 U0.000 V0.000 E0.02993 F1440.0
G1 X2.716 Y2.959 Z27.000 U0.000 V0.000 E0.02993 F1440.0
G1 X1.916 Y2.959 Z27.000 U0.000 V0.000 E0.02993 F1440.0
G1 E-0.80000 F1500.0
G0 X1.916 Y2.959 Z29.000 U0.000 V0.000 F3600.0
G0 X2.489 Y3.409 Z29.000 U0.000 V0.000 F3600.0
G0 X2.489 Y3.409 Z27.000 U0.000 V0.000 F3600.0
G1 E0.80000 F1200.0
G1 X3.289 Y3.409 Z27.000 U0.000 V0.000 E0.02993 F1440.0
G1 X4.089 Y3.409 Z27.000 U0.000 V0.000 E0.02993 F1440.0
G1 X4.889 Y3.409 Z27.000 U0.000 V0.000 E0.02993 F1440.0
G1 X5.689 Y3.409 Z27.000 U0.000 V0.000 E0.02993 F1440.0
G1 X6.489 Y3.409 Z27.000 U0.000 V0.000 E0.02993 F1440.0
G1 X7.289 Y3.409 Z27.000 U0.000 V0.000 E0.02993 F1440.0
G1 E-0.80000 F1500.0
G0 X7.289 Y3.409 Z29.000 U0.000 V0.000 F3600.0
G0 X6.633 Y3.859 Z29.000 U0.000 V0.000 F3600.0
G0 X6.633 Y3.859 Z27.000 U0.000 V0.000 F3600.0
G1 E0.80000 F1200.0
G1 X5.833 Y3.859 Z27.000 U0.000 V0.000 E0.02993 F1440.0
G1 X5.033 Y3.859 Z27.000 U0.000 V0.000 E0.02993 F1440.0
G1 X4.233 Y3.859 Z27.000 U0.000 V0.000 E0.02993 F1440.0
G1 X3.433 Y3.859 Z27.000 U0.000 V0.000 E0.02993 F1440.0
G1 E-0.80000 F1500.0
G0 X3.433 Y3.859 Z29.000 U0.000 V0.000 F3600.0
G0 X9.590 Y-0.286 Z29.200 U0.000 V0.000 F3600.0
G0 X9.590 Y-0.286 Z27.200 U0.000 V0.000 F3600.0
G1 E0.80000 F1200.0
G1 X9.521 Y0.511 Z27.200 U0.000 V0.000 E0.02993 F1440.0
G1 X9.319 Y1.285 Z27.200 U0.000 V0.000 E0.02993 F1440.0
G1 X8.988 Y2.013 Z27.200 U0.000 V0.000 E0.02993 F1440.0
G1 X8.538 Y2.675 Z27.200 U0.000 V0.000 E0.02993 F1440.0
G1 X7.983 Y3.250 Z27.200 U0.000 V0.000 E0.02993 F1440.0
G1 X7.338 Y3.723 Z27.200 U0.000 V0.000 E0.02992 F1440.0
G1 X6.622 Y4.079 Z27.200 U0.000 V0.000 E0.02992 F1440.0
G1 X5.856 Y4.309 Z27.200 U0.000 V0.000 E0.02992 F1440.0
G1 X5.062 Y4.406 Z27.200 U0.000 V0.000 E0.02992 F1440.0
G1 X4.264 Y4.366 Z27.200 U0.000 V0.000 E0.02992 F1440.0
G1 X3.483 Y4.192 Z27.200 U0.000 V0.000 E0.02992 F1440.0
G1 X2.744 Y3.887 Z27.200 U0.000 V0.000 E0.02991 F1440.0
G1 X2.067 Y3.462 Z27.200 U0.000 V0.000 E0.02991 F1440.0
G1 X1.473 Y2.928 Z27.200 U0.000 V0.000 E0.02991 F1440.0
G1 X0.977 Y2.301 Z27.200 U0.000 V0.000 E0.02991 F1440.0
G1 X0.595 Y1.599 Z27.200 U0.000 V0.000 E0.02991 F1440.0
G1 X0.338 Y0.842 Z27.200 U0.000 V0.000 E0.02991 F1440.0
G1 X0.213 Y0.053 Z27.200 U0.000 V0.000 E0.02990 F1440.0
G1 X0.223 Y-0.746 Z27.200 U0.000 V0.000 E0.02990 F1440.0
G1 X0.370 Y-1.532 Z27.200 U0.000 V0.000 E0.02990 F1440.0
G1 X0.647 Y-2.281 Z27.200 U0.000 V0.000 E0.02990 F1440.0
G1 X1.047 Y-2.973 Z27.200 U0.000 V0.000 E0.02990 F1440.0
G1 X1.559 Y-3.586 Z27.200 U0.000 V0.000 E0.02990 F1440.0
G1 X2.168 Y-4.104 Z27.200 U0.000 V0.000 E0.02990 F1440.0
G1 X2.855 Y-4.511 Z27.200 U0.000 V0.000 E0.02989 F1440.0
G1 X3.602 Y-4.795 Z27.200 U0.000 V0.000 E0.02989 F1440.0
G1 X4.386 Y-4.949 Z27.200 U0.000 V0.000 E0.02989 F1440.0
G1 X5.185 Y-4.967 Z27.200 U0.000 V0.000 E0.02989 F1440.0
G1 X5.975 Y-4.849 Z27.200 U0.000 V0.000 E0.02989 F1440.0
G1 X6.733 Y-4.599 Z27.200 U0.000 V0.000 E0.02989 F1440.0
G1 X7.439 Y-4.224 Z27.200 U0.000 V0.000 E0.02989 F1440.0
G1 X8.070 Y-3.735 Z27.200 U0.000 V0.000 E0.02988 F1440.0
G1 X8.609 Y-3.145 Z27.200 U0.000 V0.000 E0.02988 F1440.0
G1 X9.040 Y-2.473 Z27.200 U0.000 V0.000 E0.02988 F1440.0
G1 X9.351 Y-1.738 Z27.200 U0.000 V0.000 E0.02988 F1440.0
G1 X9.532 Y-0.960 Z27.200 U0.000 V0.000 E0.02988 F1440.0
G1 X9.590 Y-0.286 Z27.200 U0.000 V0.000 E0.02532 F1440.0
G1 E-0.80000 F1500.0
G0 X9.590 Y-0.286 Z29.200 U0.000 V0.000 F3600.0
G0 X2.899 Y-4.529 Z29.200 U0.000 V0.000 F3600.0
G0 X2.899 Y-4.529 Z27.200 U0.000 V0.000 F3600.0
G1 E0.80000 F1200.0
G1 X3.699 Y-4.529 Z27.200 U0.000 V0.000 E0.02993 F1440.0
G1 X4.499 Y-4.529 Z27.200 U0.000 V0.000 E0.02993 F1440.0
G1 X5.299 Y-4.529 Z27.200 U0.000 V0.000 E0.02993 F1440.0
G1 X6.099 Y-4.529 Z27.200 U0.000 V0.000 E0.02993 F1440.0
G1 X6.899 Y-4.529 Z27.200 U0.000 V0.000 E0.02993 F1440.0
G1 E-0.80000 F1500.0
G0 X6.899 Y-4.529 Z29.200 U0.000 V0.000 F3600.0
G0 X7.726 Y-4.079 Z29.200 U0.000 V0.000 F3600.0
G0 X7.726 Y-4.079 Z27.200 U0.000 V0.000 F3600.0
G1 E0.80000 F1200.0
G1 X6.926 Y-4.079 Z27.200 U0.000 V0.000 E0.02993 F1440.0
G1 X6.126 Y-4.079 Z27.200 U0.000 V0.000 E0.02993 F1440.0
G1 X5.326 Y-4.079 Z27.200 U0.000 V0.000 E0.02993 F1440.0
G1 X4.526 Y-4.079 Z27.200 U0.000 V0.000 E0.02993 F1440.0
G1 X3.726 Y-4.079 Z27.200 U0.000 V0.000 E0.02993 F1440.0
G1 X2.926 Y-4.079 Z27.200 U0.000 V0.000 E0.02993 F1440.0
G1 X2.126 Y-4.079 Z27.200 U0.000 V0.000 E0.02993 F1440.0
G1 E-0.80000 F1500.0
G0 X2.126 Y-4.079 Z29.200 U0.000 V0.000 F3600.0
G0 X1.607 Y-3.629 Z29.200 U0.000 V0.000 F3600.0
G0 X1.607 Y-3.629 Z27.200 U0.000 V0.000 F3600.0
G1 E0.80000 F1200.0
G1 X2.407 Y-3.629 Z27.200 U0.000 V0.000 E0.02993 F1440.0
G1 X3.207 Y-3.629 Z27.200 U0.000 V0.000 E0.02993 F1440.0
G1 X4.007 Y-3.629 Z27.200 U0.000 V0.000 E0.02993 F1440.0
G1 X4.807 Y-3.629 Z27.200 U0.000 V0.000 E0.02993 F1440.0
G1 X5.607 Y-3.629 Z27.200 U0.000 V0.000 E0.02993 F1440.0
G1 X6.407 Y-3.629 Z27.200 U0.000 V0.000 E0.02993 F1440.0
G1 X7.207 Y-3.629 Z27.200 U0.000 V0.000 E0.02993 F1440.0
G1 X8.007 Y-3.629 Z27.200 U0.000 V0.000 E0.02993 F1440.0
G1 E-0.80000 F1500.0
G0 X8.007 Y-3.629 Z29.200 U0.000 V0.000 F3600.0
G0 X8.413 Y-3.179 Z29.200 U0.000 V0.000 F3600.0
G0 X8.413 Y-3.179 Z27.200 U0.000 V0.000 F3600.0
G1 E0.80000 F1200.0
G1 X7.613 Y-3.179 Z27.200 U0.000 V0.000 E0.02993 F1440.0
G1 X6.813 Y-3.179 Z27.200 U0.000 V0.000 E0.02993 F1440.0
G1 X6.013 Y-3.179 Z27.200 U0.000 V0.000 E0.02993 F1440.0
G1 X5.213 Y-3.179 Z27.200 U0.000 V0.000 E0.02993 F1440.0
G1 X4.413 Y-3.179 Z27.200 U0.000 V0.000 E0.02993 F1440.0
G1 X3.613 Y-3.179 Z27.200 U0.000 V0.000 E0.02993 F1440.0
G1 X2.813 Y-3.179 Z27.200 U0.000 V0.000 E0.02993 F1440.0
G1 X2.013 Y-3.179 Z27.200 U0.000 V0.000 E0.02993 F1440.0
G1 X1.213 Y-3.179 Z27.200 U0.000 V0.000 E0.02993 F1440.0
G1 E-0.80000 F1500.0
G0 X1.213 Y-3.179 Z29.200 U0.000 V0.000 F3600.0
G0 X0.897 Y-2.729 Z29.200 U0.000 V0.000 F3600.0
G0 X0.897 Y-2.729 Z27.200 U0.000 V0.000 F3600.0
G1 E0.80000 F1200.0
G1 X1.697 Y-2.729 Z27.200 U0.000 V0.000 E0.02993 F1440.0
G1 X2.497 Y-2.729 Z27.200 U0.000 V0.000 E0.02993 F1440.0
G1 X3.297 Y-2.729 Z27.200 U0.000 V0.000 E0.02993 F1440.0
G1 X4.097 Y-2.729 Z27.200 U0.000 V0.000 E0.02993 F1440.0
G1 X4.897 Y-2.729 Z27.200 U0.000 V0.000 E0.02993 F1440.0
G1 X5.697 Y-2.729 Z27.200 U0.000 V0.000 E0.02993 F1440.0
G1 X6.497 Y-2.729 Z27.200 U0.000 V0.000 E0.02993 F1440.0
G1 X7.297 Y-2.729 Z27.200 U0.000 V0.000 E0.02993 F1440.0
G1 X8.097 Y-2.729 Z27.200 U0.000 V0.000 E0.02993 F1440.0
G1 X8.897 Y-2.729 Z27.200 U0.000 V0.000 E0.02993 F1440.0
G1 E-0.80000 F1500.0
G0 X8.897 Y-2.729 Z29.200 U0.000 V0.000 F3600.0
G0 X9.445 Y-2.279 Z29.200 U0.000 V0.000 F3600.0
G0 X9.445 Y-2.279 Z27.200 U0.000 V0.000 F3600.0
G1 E0.80000 F1200.0
G1 X8.645 Y-2.279 Z27.200 U0.000 V0.000 E0.02993 F1440.0
G1 X7.845 Y-2.279 Z27.200 U0.000 V0.000 E0.02993 F1440.0
G1 X7.045 Y-2.279 Z27.200 U0.000 V0.000 E0.02993 F1440.0
G1 X6.245 Y-2.279 Z27.200 U0.000 V0.000 E0.02993 F1440.0
G1 X5.445 Y-2.279 Z27.200 U0.000 V0.000 E0.02993 F1440.0
G1 X4.645 Y-2.279 Z27.200 U0.000 V0.000 E0.02993 F1440.0
G1 X3.845 Y-2.279 Z27.200 U0.000 V0.000 E0.02993 F1440.0
G1 X3.045 Y-2.279 Z27.200 U0.000 V0.000 E0.02993 F1440.0
G1 X2.245 Y-2.279 Z27.200 U0.000 V0.000 E0.02993 F1440.0
G1 X1.445 Y-2.279 Z27.200 U0.000 V0.000 E0.02993 F1440.0
G1 X0.645 Y-2.279 Z27.200 U0.000 V0.000 E0.02993 F1440.0
G1 E-0.80000 F1500.0
G0 X0.645 Y-2.279 Z29.200 U0.000 V0.000 F3600.0
G0 X0.474 Y-1.829 Z29.200 U0.000 V0.000 F3600.0
G0 X0.474 Y-1.829 Z27.200 U0.000 V0.000 F3600.0
G1 E0.80000 F1200.0
G1 X1.274 Y-1.829 Z27.200 U0.000 V0.000 E0.02993 F1440.0
G1 X2.074 Y-1.829 Z27.200 U0.000 V0.000 E0.02993 F1440.0
G1 X2.874 Y-1.829 Z27.200 U0.000 V0.000 E0.02993 F1440.0
G1 X3.674 Y-1.829 Z27.200 U0.000 V0.000 E0.02993 F1440.0
G1 X4.474 Y-1.829 Z27.200 U0.000 V0.000 E0.02993 F1440.0
G1 X5.274 Y-1.829 Z27.200 U0.000 V0.000 E0.02993 F1440.0
G1 X6.074 Y-1.829 Z27.200 U0.000 V0.000 E0.02993 F1440.0
G1 X6.874 Y-1.829 Z27.200 U0.000 V0.000 E0.02993 F1440.0
G1 X7.674 Y-1.829 Z27.200 U0.000 V0.000 E0.02993 F1440.0
G1 X8.474 Y-1.829 Z27.200 U0.000 V0.000 E0.02993 F1440.0
G1 X9.274 Y-1.829 Z27.200 U0.000 V0.000 E0.02993 F1440.0
G1 E-0.80000 F1500.0
G0 X9.274 Y-1.829 Z29.200 U0.000 V0.000 F3600.0
G0 X9.132 Y-1.379 Z29.200 U0.000 V0.000 F3600.0
G0 X9.132 Y-1.379 Z27.200 U0.000 V0.000 F3600.0
G1 E0.80000 F1200.0
G1 X8.332 Y-1.379 Z27.200 U0.000 V0.000 E0.02993 F1440.0
G1 X7.532 Y-1.379 Z27.200 U0.000 V0.000 E0.02993 F1440.0
G1 X6.732 Y-1.379 Z27.200 U0.000 V0.000 E0.02993 F1440.0
G1 X5.932 Y-1.379 Z27.200 U0.000 V0.000 E0.02993 F1440.0
G1 X5.132 Y-1.379 Z27.200 U0.000 V0.000 E0.02993 F1440.0
G1 X4.332 Y-1.379 Z27.200 U0.000 V0.000 E0.02993 F1440.0
G1 X3.532 Y-1.379 Z27.200 U0.000 V0.000 E0.02993 F1440.0
G1 X2.732 Y-1.379 Z27.200 U0.000 V0.000 E0.02993 F1440.0
G1 X1.932 Y-1.379 Z27.200 U0.000 V0.000 E0.02993 F1440.0
G1 X1.132 Y-1.379 Z27.200 U0.000 V0.000 E0.02993 F1440.0
G1 X0.332 Y-1.379 Z27.200 U0.000 V0.000 E0.02993 F1440.0
G1 E-0.80000 F1500.0
G0 X0.332 Y-1.379 Z29.200 U0.000 V0.000 F3600.0
G0 X0.255 Y-0.929 Z29.200 U0.000 V0.000 F3600.0
G0 X0.255 Y-0.929 Z27.200 U0.000 V0.000 F3600.0
G1 E0.80000 F1200.0
G1 X1.055 Y-0.929 Z27.200 U0.000 V0.000 E0.02993 F1440.0
G1 X1.855 Y-0.929 Z27.200 U0.000 V0.000 E0.02993 F1440.0
G1 X2.655 Y-0.929 Z27.200 U0.000 V0.000 E0.02993 F1440.0
G1 X3.455 Y-0.929 Z27.200 U0.000 V0.000 E0.02993 F1440.0
G1 X4.255 Y-0.929 Z27.200 U0.000 V0.000 E0.02993 F1440.0
G1 X5.055 Y-0.929 Z27.200 U0.000 V0.000 E0.02993 F1440.0
G1 X5.855 Y-0.929 Z27.200 U0.000 V0.000 E0.02993 F1440.0
G1 X6.655 Y-0.929 Z27.200 U0.000 V0.000 E0.02993 F1440.0
G1 X7.455 Y-0.929 Z27.200 U0.000 V0.000 E0.02993 F1440.0
G1 X8.255 Y-0.929 Z27.200 U0.000 V0.000 E0.02993 F1440.0
G1 X9.055 Y-0.929 Z27.200 U0.000 V0.000 E0.02993 F1440.0
G1 X9.855 Y-0.929 Z27.200 U0.000 V0.000 E0.02993 F1440.0
G1 E-0.80000 F1500.0
G0 X9.855 Y-0.929 Z29.200 U0.000 V0.000 F3600.0
G0 X9.813 Y-0.479 Z29.200 U0.000 V0.000 F3600.0
G0 X9.813 Y-0.479 Z27.200 U0.000 V0.000 F3600.0
G1 E0.80000 F1200.0
G1 X9.013 Y-0.479 Z27.200 U0.000 V0.000 E0.02993 F1440.0
G1 X8.213 Y-0.479 Z27.200 U0.000 V0.000 E0.02993 F1440.0
G1 X7.413 Y-0.479 Z27.200 U0.000 V0.000 E0.02993 F1440.0
G1 X6.613 Y-0.479 Z27.200 U0.000 V0.000 E0.02993 F1440.0
G1 X5.813 Y-0.479 Z27.200 U0.000 V0.000 E0.02993 F1440.0
G1 X5.013 Y-0.479 Z27.200 U0.000 V0.000 E0.02993 F1440.0
G1 X4.213 Y-0.479 Z27.200 U0.000 V0.000 E0.02993 F1440.0
G1 X3.413 Y-0.479 Z27.200 U0.000 V0.000 E0.02993 F1440.0
G1 X2.613 Y-0.479 Z27.200 U0.000 V0.000 E0.02993 F1440.0
G1 X1.813 Y-0.479 Z27.200 U0.000 V0.000 E0.02993 F1440.0
G1 X1.013 Y-0.479 Z27.200 U0.000 V0.000 E0.02993 F1440.0
G1 X0.213 Y-0.479 Z27.200 U0.000 V0.000 E0.02993 F1440.0
G1 E-0.80000 F1500.0
G0 X0.213 Y-0.479 Z29.200 U0.000 V0.000 F3600.0
G0 X0.213 Y-0.029 Z29.200 U0.000 V0.000 F3600.0
G0 X0.213 Y-0.029 Z27.200 U0.000 V0.000 F3600.0
G1 E0.80000 F1200.0
G1 X1.013 Y-0.029 Z27.200 U0.000 V0.000 E0.02993 F1440.0
G1 X1.813 Y-0.029 Z27.200 U0.000 V0.000 E0.02993 F1440.0
G1 X2.613 Y-0.029 Z27.200 U0.000 V0.000 E0.02993 F1440.0
G1 X3.413 Y-0.029 Z27.200 U0.000 V0.000 E0.02993 F1440.0
G1 X4.213 Y-0.029 Z27.200 U0.000 V0.000 E0.02993 F1440.0
G1 X5.013 Y-0.029 Z27.200 U0.000 V0.000 E0.02993 F1440.0
G1 X5.813 Y-0.029 Z27.200 U0.000 V0.000 E0.02993 F1440.0
G1 X6.613 Y-0.029 Z27.200 U0.000 V0.000 E0.02993 F1440.0
G1 X7.413 Y-0.029 Z27.200 U0.000 V0.000 E0.02993 F1440.0
G1 X8.213 Y-0.029 Z27.200 U0.000 V0.000 E0.02993 F1440.0
G1 X9.013 Y-0.029 Z27.200 U0.000 V0.000 E0.02993 F1440.0
G1 X9.813 Y-0.029 Z27.200 U0.000 V0.000 E0.02993 F1440.0
G1 E-0.80000 F1500.0
G0 X9.813 Y-0.029 Z29.200 U0.000 V0.000 F3600.0
G0 X9.866 Y0.421 Z29.200 U0.000 V0.000 F3600.0
G0 X9.866 Y0.421 Z27.200 U0.000 V0.000 F3600.0
G1 E0.80000 F1200.0
G1 X9.066 Y0.421 Z27.200 U0.000 V0.000 E0.02993 F1440.0
G1 X8.266 Y0.421 Z27.200 U0.000 V0.000 E0.02993 F1440.0
G1 X7.466 Y0.421 Z27.200 U0.000 V0.000 E0.02993 F1440.0
G1 X6.666 Y0.421 Z27.200 U0.000 V0.000 E0.02993 F1440.0
G1 X5.866 Y0.421 Z27.200 U0.000 V0.000 E0.02993 F1440.0
G1 X5.066 Y0.421 Z27.200 U0.000 V0.000 E0.02993 F1440.0
G1 X4.266 Y0.421 Z27.200 U0.000 V0.000 E0.02993 F1440.0
G1 X3.466 Y0.421 Z27.200 U0.000 V0.000 E0.02993 F1440.0
G1 X2.666 Y0.421 Z27.200 U0.000 V0.000 E0.02993 F1440.0
G1 X1.866 Y0.421 Z27.200 U0.000 V0.000 E0.02993 F1440.0
G1 X1.066 Y0.421 Z27.200 U0.000 V0.000 E0.02993 F1440.0
G1 X0.266 Y0.421 Z27.200 U0.000 V0.000 E0.02993 F1440.0
G1 E-0.80000 F1500.0
G0 X0.266 Y0.421 Z29.200 U0.000 V0.000 F3600.0
G0 X0.343 Y0.871 Z29.200 U0.000 V0.000 F3600.0
G0 X0.343 Y0.871 Z27.200 U0.000 V0.000 F3600.0
G1 E0.80000 F1200.0
G1 X1.143 Y0.871 Z27.200 U0.000 V0.000 E0.02993 F1440.0
G1 X1.943 Y0.871 Z27.200 U0.000 V0.000 E0.02993 F1440.0
G1 X2.743 Y0.871 Z27.200 U0.000 V0.000 E0.02993 F1440.0
G1 X3.543 Y0.871 Z27.200 U0.000 V0.000 E0.02993 F1440.0
G1 X4.343 Y0.871 Z27.200 U0.000 V0.000 E0.02993 F1440.0
G1 X5.143 Y0.871 Z27.200 U0.000 V0.000 E0.02993 F1440.0
G1 X5.943 Y0.871 Z27.200 U0.000 V0.000 E0.02993 F1440.0
G1 X6.743 Y0.871 Z27.200 U0.000 V0.000 E0.02993 F1440.0
G1 X7.543 Y0.871 Z27.200 U0.000 V0.000 E0.02993 F1440.0
G1 X8.343 Y0.871 Z27.200 U0.000 V0.000 E0.02993 F1440.0
G1 X9.143 Y0.871 Z27.200 U0.000 V0.000 E0.02993 F1440.0
G1 E-0.80000 F1500.0
G0 X9.143 Y0.871 Z29.200 U0.000 V0.000 F3600.0
G0 X9.297 Y1.321 Z29.200 U0.000 V0.000 F3600.0
G0 X9.297 Y1.321 Z27.200 U0.000 V0.000 F3600.0
G1 E0.80000 F1200.0
G1 X8.497 Y1.321 Z27.200 U0.000 V0.000 E0.02993 F1440.0
G1 X7.697 Y1.321 Z27.200 U0.000 V0.000 E0.02993 F1440.0
G1 X6.897 Y1.321 Z27.200 U0.000 V0.000 E0.02993 F1440.0
G1 X6.097 Y1.321 Z27.200 U0.000 V0.000 E0.02993 F1440.0
G1 X5.297 Y1.321 Z27.200 U0.000 V0.000 E0.02993 F1440.0
G1 X4.497 Y1.321 Z27.200 U0.000 V0.000 E0.02993 F1440.0
G1 X3.697 Y1.321 Z27.200 U0.000 V0.000 E0.02993 F1440.0
G1 X2.897 Y1.321 Z27.200 U0.000 V0.000 E0.02993 F1440.0
G1 X2.097 Y1.321 Z27.200 U0.000 V0.000 E0.02993 F1440.0
G1 X1.297 Y1.321 Z27.200 U0.000 V0.000 E0.02993 F1440.0
G1 X0.497 Y1.321 Z27.200 U0.000 V0.000 E0.02993 F1440.0
G1 E-0.80000 F1500.0
G0 X0.497 Y1.321 Z29.200 U0.000 V0.000 F3600.0
G0 X0.681 Y1.771 Z29.200 U0.000 V0.000 F3600.0
G0 X0.681 Y1.771 Z27.200 U0.000 V0.000 F3600.0
G1 E0.80000 F1200.0
G1 X1.481 Y1.771 Z27.200 U0.000 V0.000 E0.02993 F1440.0
G1 X2.281 Y1.771 Z27.200 U0.000 V0.000 E0.02993 F1440.0
G1 X3.081 Y1.771 Z27.200 U0.000 V0.000 E0.02993 F1440.0
G1 X3.881 Y1.771 Z27.200 U0.000 V0.000 E0.02993 F1440.0
G1 X4.681 Y1.771 Z27.200 U0.000 V0.000 E0.02993 F1440.0
G1 X5.481 Y1.771 Z27.200 U0.000 V0.000 E0.02993 F1440.0
G1 X6.281 Y1.771 Z27.200 U0.000 V0.000 E0.02993 F1440.0
G1 X7.081 Y1.771 Z27.200 U0.000 V0.000 E0.02993 F1440.0
G1 X7.881 Y1.771 Z27.200 U0.000 V0.000 E0.02993 F1440.0
G1 X8.681 Y1.771 Z27.200 U0.000 V0.000 E0.02993 F1440.0
G1 X9.481 Y1.771 Z27.200 U0.000 V0.000 E0.02993 F1440.0
G1 E-0.80000 F1500.0
G0 X9.481 Y1.771 Z29.200 U0.000 V0.000 F3600.0
G0 X8.933 Y2.221 Z29.200 U0.000 V0.000 F3600.0
G0 X8.933 Y2.221 Z27.200 U0.000 V0.000 F3600.0
G1 E0.80000 F1200.0
G1 X8.133 Y2.221 Z27.200 U0.000 V0.000 E0.02993 F1440.0
G1 X7.333 Y2.221 Z27.200 U0.000 V0.000 E0.02993 F1440.0
G1 X6.533 Y2.221 Z27.200 U0.000 V0.000 E0.02993 F1440.0
G1 X5.733 Y2.221 Z27.200 U0.000 V0.000 E0.02993 F1440.0
G1 X4.933 Y2.221 Z27.200 U0.000 V0.000 E0.02993 F1440.0
G1 X4.133 Y2.221 Z27.200 U0.000 V0.000 E0.02993 F1440.0
G1 X3.333 Y2.221 Z27.200 U0.000 V0.000 E0.02993 F1440.0
G1 X2.533 Y2.221 Z27.200 U0.000 V0.000 E0.02993 F1440.0
G1 X1.733 Y2.221 Z27.200 U0.000 V0.000 E0.02993 F1440.0
G1 X0.933 Y2.221 Z27.200 U0.000 V0.000 E0.02993 F1440.0
G1 E-0.80000 F1500.0
G0 X0.933 Y2.221 Z29.200 U0.000 V0.000 F3600.0
G0 X1.265 Y2.671 Z29.200 U0.000 V0.000 F3600.0
G0 X1.265 Y2.671 Z27.200 U0.000 V0.000 F3600.0
G1 E0.80000 F1200.0
G1 X2.065 Y2.671 Z27.200 U0.000 V0.000 E0.02993 F1440.0
G1 X2.865 Y2.671 Z27.200 U0.000 V0.000 E0.02993 F1440.0
G1 X3.665 Y2.671 Z27.200 U0.000 V0.000 E0.02993 F1440.0
G1 X4.465 Y2.671 Z27.200 U0.000 V0.000 E0.02993 F1440.0
G1 X5.265 Y2.671 Z27.200 U0.000 V0.000 E0.02993 F1440.0
G1 X6.065 Y2.671 Z27.200 U0.000 V0.000 E0.02993 F1440.0
G1 X6.865 Y2.671 Z27.200 U0.000 V0.000 E0.02993 F1440.0
G1 X7.665 Y2.671 Z27.200 U0.000 V0.000 E0.02993 F1440.0
G1 X8.465 Y2.671 Z27.200 U0.000 V0.000 E0.02993 F1440.0
G1 E-0.80000 F1500.0
G0 X8.465 Y2.671 Z29.200 U0.000 V0.000 F3600.0
G0 X8.080 Y3.121 Z29.200 U0.000 V0.000 F3600.0
G0 X8.080 Y3.121 Z27.200 U0.000 V0.000 F3600.0
G1 E0.80000 F1200.0
G1 X7.280 Y3.121 Z27.200 U0.000 V0.000 E0.02993 F1440.0
G1 X6.480 Y3.121 Z27.200 U0.000 V0.000 E0.02993 F1440.0
G1 X5.680 Y3.121 Z27.200 U0.000 V0.000 E0.02993 F1440.0
G1 X4.880 Y3.121 Z27.200 U0.000 V0.000 E0.02993 F1440.0
G1 X4.080 Y3.121 Z27.200 U0.000 V0.000 E0.02993 F1440.0
G1 X3.280 Y3.121 Z27.200 U0.000 V0.000 E0.02993 F1440.0
G1 X2.480 Y3.121 Z27.200 U0.000 V0.000 E0.02993 F1440.0
G1 X1.680 Y3.121 Z27.200 U0.000 V0.000 E0.02993 F1440.0
G1 E-0.80000 F1500.0
G0 X1.680 Y3.121 Z29.200 U0.000 V0.000 F3600.0
G0 X2.231 Y3.571 Z29.200 U0.000 V0.000 F3600.0
G0 X2.231 Y3.571 Z27.200 U0.000 V0.000 F3600.0
G1 E0.80000 F1200.0
G1 X3.031 Y3.571 Z27.200 U0.000 V0.000 E0.02993 F1440.0
G1 X3.831 Y3.571 Z27.200 U0.000 V0.000 E0.02993 F1440.0
G1 X4.631 Y3.571 Z27.200 U0.000 V0.000 E0.02993 F1440.0
G1 X5.431 Y3.571 Z27.200 U0.000 V0.000 E0.02993 F1440.0
G1 X6.231 Y3.571 Z27.200 U0.000 V0.000 E0.02993 F1440.0
G1 X7.031 Y3.571 Z27.200 U0.000 V0.000 E0.02993 F1440.0
G1 X7.831 Y3.571 Z27.200 U0.000 V0.000 E0.02993 F1440.0
G1 E-0.80000 F1500.0
G0 X7.831 Y3.571 Z29.200 U0.000 V0.000 F3600.0
G0 X7.060 Y4.021 Z29.200 U0.000 V0.000 F3600.0
G0 X7.060 Y4.021 Z27.200 U0.000 V0.000 F3600.0
G1 E0.80000 F1200.0
G1 X6.260 Y4.021 Z27.200 U0.000 V0.000 E0.02993 F1440.0
G1 X5.460 Y4.021 Z27.200 U0.000 V0.000 E0.02993 F1440.0
G1 X4.660 Y4.021 Z27.200 U0.000 V0.000 E0.02993 F1440.0
G1 X3.860 Y4.021 Z27.200 U0.000 V0.000 E0.02993 F1440.0
G1 X3.060 Y4.021 Z27.200 U0.000 V0.000 E0.02993 F1440.0
G1 E-0.80000 F1500.0
G0 X3.060 Y4.021 Z29.200 U0.000 V0.000 F3600.0
G0 X9.851 Y-0.286 Z29.400 U0.000 V0.000 F3600.0
G0 X9.851 Y-0.286 Z27.400 U0.000 V0.000 F3600.0
G1 E0.80000 F1200.0
G1 X9.787 Y0.512 Z27.400 U0.000 V0.000 E0.02993 F1440.0
G1 X9.595 Y1.288 Z27.400 U0.000 V0.000 E0.02993 F1440.0
G1 X9.280 Y2.024 Z27.400 U0.000 V0.000 E0.02993 F1440.0
G1 X8.852 Y2.699 Z27.400 U0.000 V0.000 E0.02993 F1440.0
G1 X8.320 Y3.297 Z27.400 U0.000 V0.000 E0.02993 F1440.0
G1 X7.699 Y3.801 Z27.400 U0.000 V0.000 E0.02993 F1440.0
G1 X7.006 Y4.199 Z27.400 U0.000 V0.000 E0.02993 F1440.0
G1 X6.257 Y4.480 Z27.400 U0.000 V0.000 E0.02993 F1440.0
G1 X5.473 Y4.637 Z27.400 U0.000 V0.000 E0.02993 F1440.0
G1 X4.673 Y4.666 Z27.400 U0.000 V0.000 E0.02992 F1440.0
G1 X3.880 Y4.567 Z27.400 U0.000 V0.000 E0.02992 F1440.0
G1 X3.113 Y4.340 Z27.400 U0.000 V0.000 E0.02992 F1440.0
G1 X2.392 Y3.994 Z27.400 U0.000 V0.000 E0.02992 F1440.0
G1 X1.737 Y3.536 Z27.400 U0.000 V0.000 E0.02992 F1440.0
G1 X1.163 Y2.979 Z27.400 U0.000 V0.000 E0.02992 F1440.0
G1 X0.687 Y2.336 Z27.400 U0.000 V0.000 E0.02992 F1440.0
G1 X0.320 Y1.626 Z27.400 U0.000 V0.000 E0.02992 F1440.0
G1 X0.073 Y0.866 Z27.400 U0.000 V0.000 E0.02992 F1440.0
G1 X-0.050 Y0.075 Z27.400 U0.000 V0.000 E0.02992 F1440.0
G1 X-0.043 Y-0.724 Z27.400 U0.000 V0.000 E0.02992 F1440.0
G1 X0.092 Y-1.512 Z27.400 U0.000 V0.000 E0.02991 F1440.0
G1 X0.351 Y-2.268 Z27.400 U0.000 V0.000 E0.02991 F1440.0
G1 X0.729 Y-2.973 Z27.400 U0.000 V0.000 E0.02991 F1440.0
G1 X1.216 Y-3.607 Z27.400 U0.000 V0.000 E0.02991 F1440.0
G1 X1.798 Y-4.155 Z27.400 U0.000 V0.000 E0.02991 F1440.0
G1 X2.460 Y-4.602 Z27.400 U0.000 V0.000 E0.02991 F1440.0
G1 X3.186 Y-4.937 Z27.400 U0.000 V0.000 E0.02991 F1440.0
G1 X3.956 Y-5.151 Z27.400 U0.000 V0.000 E0.02991 F1440.0
G1 X4.751 Y-5.238 Z27.400 U0.000 V0.000 E0.02991 F1440.0
G1 X5.549 Y-5.196 Z27.400 U0.000 V0.000 E0.02991 F1440.0
G1 X6.330 Y-5.027 Z27.400 U0.000 V0.000 E0.02991 F1440.0
G1 X7.074 Y-4.734 Z27.400 U0.000 V0.000 E0.02991 F1440.0
G1 X7.761 Y-4.325 Z27.400 U0.000 V0.000 E0.02990 F1440.0
G1 X8.373 Y-3.811 Z27.400 U0.000 V0.000 E0.02990 F1440.0
G1 X8.894 Y-3.206 Z27.400 U0.000 V0.000 E0.02990 F1440.0
G1 X9.312 Y-2.524 Z27.400 U0.000 V0.000 E0.02990 F1440.0
G1 X9.614 Y-1.784 Z27.400 U0.000 V0.000 E0.02990 F1440.0
G1 X9.793 Y-1.006 Z27.400 U0.000 V0.000 E0.02990 F1440.0
G1 X9.851 Y-0.286 Z27.400 U0.000 V0.000 E0.02703 F1440.0
G1 E-0.80000 F1500.0
G0 X9.851 Y-0.286 Z29.400 U0.000 V0.000 F3600.0
G0 X6.857 Y-4.790 Z29.400 U0.000 V0.000 F3600.0
G0 X6.857 Y-4.790 Z27.400 U0.000 V0.000 F3600.0
G1 E0.80000 F1200.0
G1 X6.057 Y-4.790 Z27.400 U0.000 V0.000 E0.02993 F1440.0
G1 X5.257 Y-4.790 Z27.400 U0.000 V0.000 E0.02993 F1440.0
G1 X4.457 Y-4.790 Z27.400 U0.000 V0.000 E0.02993 F1440.0
G1 X3.657 Y-4.790 Z27.400 U0.000 V0.000 E0.02993 F1440.0
G1 X2.857 Y-4.790 Z27.400 U0.000 V0.000 E0.02993 F1440.0
G1 E-0.80000 F1500.0
G0 X2.857 Y-4.790 Z29.400 U0.000 V0.000 F3600.0
G0 X2.066 Y-4.340 Z29.400 U0.000 V0.000 F3600.0
G0 X2.066 Y-4.340 Z27.400 U0.000 V0.000 F3600.0
G1 E0.80000 F1200.0
G1 X2.866 Y-4.340 Z27.400 U0.000 V0.000 E0.02993 F1440.0
G1 X3.666 Y-4.340 Z27.400 U0.000 V0.000 E0.02993 F1440.0
G1 X4.466 Y-4.340 Z27.400 U0.000 V0.000 E0.02993 F1440.0
G1 X5.266 Y-4.340 Z27.400 U0.000 V0.000 E0.02993 F1440.0
G1 X6.066 Y-4.340 Z27.400 U0.000 V0.000 E0.02993 F1440.0
G1 X6.866 Y-4.340 Z27.400 U0.000 V0.000 E0.02993 F1440.0
G1 X7.666 Y-4.340 Z27.400 U0.000 V0.000 E0.02993 F1440.0
G1 E-0.80000 F1500.0
G0 X7.666 Y-4.340 Z29.400 U0.000 V0.000 F3600.0
G0 X7.911 Y-3.890 Z29.400 U0.000 V0.000 F3600.0
G0 X7.911 Y-3.890 Z27.400 U0.000 V0.000 F3600.0
G1 E0.80000 F1200.0
G1 X7.111 Y-3.890 Z27.400 U0.000 V0.000 E0.02993 F1440.0
G1 X6.311 Y-3.890 Z27.400 U0.000 V0.000 E0.02993 F1440.0
G1 X5.511 Y-3.890 Z27.400 U0.000 V0.000 E0.02993 F1440.0
G1 X4.711 Y-3.890 Z27.400 U0.000 V0.000 E0.02993 F1440.0
G1 X3.911 Y-3.890 Z27.400 U0.000 V0.000 E0.02993 F1440.0
G1 X3.111 Y-3.890 Z27.400 U0.000 V0.000 E0.02993 F1440.0
G1 X2.311 Y-3.890 Z27.400 U0.000 V0.000 E0.02993 F1440.0
G1 X1.511 Y-3.890 Z27.400 U0.000 V0.000 E0.02993 F1440.0
G1 E-0.80000 F1500.0
G0 X1.511 Y-3.890 Z29.400 U0.000 V0.000 F3600.0
G0 X1.081 Y-3.440 Z29.400 U0.000 V0.000 F3600.0
G0 X1.081 Y-3.440 Z27.400 U0.000 V0.000 F3600.0
G1 E0.80000 F1200.0
G1 X1.881 Y-3.440 Z27.400 U0.000 V0.000 E0.02993 F1440.0
G1 X2.681 Y-3.440 Z27.400 U0.000 V0.000 E0.02993 F1440.0
G1 X3.481 Y-3.440 Z27.400 U0.000 V0.000 E0.02993 F1440.0
G1 X4.281 Y-3.440 Z27.400 U0.000 V0.000 E0.02993 F1440.0
G1 X5.081 Y-3.440 Z27.400 U0.000 V0.000 E0.02993 F1440.0
G1 X5.881 Y-3.440 Z27.400 U0.000 V0.000 E0.02993 F1440.0
G1 X6.681 Y-3.440 Z27.400 U0.000 V0.000 E0.02993 F1440.0
G1 X7.481 Y-3.440 Z27.400 U0.000 V0.000 E0.02993 F1440.0
G1 X8.281 Y-3.440 Z27.400 U0.000 V0.000 E0.02993 F1440.0
G1 X9.081 Y-3.440 Z27.400 U0.000 V0.000 E0.02993 F1440.0
G1 E-0.80000 F1500.0
G0 X9.081 Y-3.440 Z29.400 U0.000 V0.000 F3600.0
G0 X8.743 Y-2.990 Z29.400 U0.000 V0.000 F3600.0
G0 X8.743 Y-2.990 Z27.400 U0.000 V0.000 F3600.0
G1 E0.80000 F1200.0
G1 X7.943 Y-2.990 Z27.400 U0.000 V0.000 E0.02993 F1440.0
G1 X7.143 Y-2.990 Z27.400 U0.000 V0.000 E0.02993 F1440.0
G1 X6.343 Y-2.990 Z27.400 U0.000 V0.000 E0.02993 F1440.0
G1 X5.543 Y-2.990 Z27.400 U0.000 V0.000 E0.02993 F1440.0
G1 X4.743 Y-2.990 Z27.400 U0.000 V0.000 E0.02993 F1440.0
G1 X3.943 Y-2.990 Z27.400 U0.000 V0.000 E0.02993 F1440.0
G1 X3.143 Y-2.990 Z27.400 U0.000 V0.000 E0.02993 F1440.0
G1 X2.343 Y-2.990 Z27.400 U0.000 V0.000 E0.02993 F1440.0
G1 X1.543 Y-2.990 Z27.400 U0.000 V0.000 E0.02993 F1440.0
G1 X0.743 Y-2.990 Z27.400 U0.000 V0.000 E0.02993 F1440.0
G1 E-0.80000 F1500.0
G0 X0.743 Y-2.990 Z29.400 U0.000 V0.000 F3600.0
G0 X0.494 Y-2.540 Z29.400 U0.000 V0.000 F3600.0
G0 X0.494 Y-2.540 Z27.400 U0.000 V0.000 F3600.0
G1 E0.80000 F1200.0
G1 X1.294 Y-2.540 Z27.400 U0.000 V0.000 E0.02993 F1440.0
G1 X2.094 Y-2.540 Z27.400 U0.000 V0.000 E0.02993 F1440.0
G1 X2.894 Y-2.540 Z27.400 U0.000 V0.000 E0.02993 F1440.0
G1 X3.694 Y-2.540 Z27.400 U0.000 V0.000 E0.02993 F1440.0
G1 X4.494 Y-2.540 Z27.400 U0.000 V0.000 E0.02993 F1440.0
G1 X5.294 Y-2.540 Z27.400 U0.000 V0.000 E0.02993 F1440.0
G1 X6.094 Y-2.540 Z27.400 U0.000 V0.000 E0.02993 F1440.0
G1 X6.894 Y-2.540 Z27.400 U0.000 V0.000 E0.02993 F1440.0
G1 X7.694 Y-2.540 Z27.400 U0.000 V0.000 E0.02993 F1440.0
G1 X8.494 Y-2.540 Z27.400 U0.000 V0.000 E0.02993 F1440.0
